( pcb2gcode 2.0.0 )
( Software-independent Gcode )

G94 ( Millimeters per minute feed rate. )
G21 ( Units == Millimeters. )

G90 ( Absolute coordinates. )
G00 S20000 ( RPM spindle speed. )
G64 P0.01016 ( set maximum deviation from commanded toolpath )
G01 F200.00000 ( Feedrate. )


G00 Z30.00000 (Retract to tool change height)
T0
M5      (Spindle stop.)
G04 P1.00000 (Wait for spindle to stop)
(MSG, Change tool bit to mill diameter 0.50000mm)
M6      (Tool change.)
M0      (Temporary machine stop.)
M3 ( Spindle on clockwise. )
G04 P1.00000 (Wait for spindle to get up to speed)
G04 P0 ( dwell for no time -- G64 should not smooth over this point )
G00 Z1.00000 ( retract )

G00 X-10.61499 Y6.35000 ( rapid move to begin. )
G01 F100.00000
G01 Z-0.20000
G04 P0 ( dwell for no time -- G64 should not smooth over this point )
G01 F200.00000
G01 X-10.61499 Y6.35000
G01 X-10.64257 Y6.07436
G01 X-10.73097 Y5.78465
G01 X-10.89190 Y5.49770
G01 X-11.07625 Y5.29092
G01 X-11.36330 Y5.08236
G01 X-11.64219 Y4.96418
G01 X-11.93955 Y4.90657
G01 X-12.21656 Y4.90794
G01 X-12.53749 Y4.98033
G01 X-12.81194 Y5.10850
G01 X-13.05372 Y5.29092
G01 X-13.23807 Y5.49770
G01 X-13.39901 Y5.78465
G01 X-13.48331 Y6.04853
G01 X-13.51498 Y6.35000
G01 X-13.48740 Y6.62562
G01 X-13.39901 Y6.91533
G01 X-13.23807 Y7.20227
G01 X-13.05372 Y7.40905
G01 X-12.76667 Y7.61761
G01 X-12.48778 Y7.73580
G01 X-12.19043 Y7.79341
G01 X-11.91341 Y7.79203
G01 X-11.59248 Y7.71964
G01 X-11.33998 Y7.60573
G01 X-11.09475 Y7.42754
G01 X-10.90839 Y7.22262
G01 X-10.75223 Y6.96308
G01 X-10.65345 Y6.67675
G01 X-10.61499 Y6.35000
G04 P0 ( dwell for no time -- G64 should not smooth over this point )
G00 Z1.00000 ( retract )

G00 X-10.61499 Y15.24000 ( rapid move to begin. )
G01 F100.00000
G01 Z-0.20000
G04 P0 ( dwell for no time -- G64 should not smooth over this point )
G01 F200.00000
G01 X-10.61499 Y15.24000
G01 X-10.64257 Y14.96436
G01 X-10.73097 Y14.67465
G01 X-10.89190 Y14.38770
G01 X-11.07625 Y14.18092
G01 X-11.36330 Y13.97236
G01 X-11.64219 Y13.85418
G01 X-11.93955 Y13.79657
G01 X-12.21656 Y13.79794
G01 X-12.53749 Y13.87033
G01 X-12.78997 Y13.98425
G01 X-13.05372 Y14.18092
G01 X-13.25232 Y14.40965
G01 X-13.39901 Y14.67465
G01 X-13.48740 Y14.96436
G01 X-13.51498 Y15.24000
G01 X-13.48740 Y15.51562
G01 X-13.39901 Y15.80533
G01 X-13.23807 Y16.09227
G01 X-13.05372 Y16.29905
G01 X-12.76667 Y16.50761
G01 X-12.48778 Y16.62580
G01 X-12.19043 Y16.68341
G01 X-11.91341 Y16.68203
G01 X-11.61692 Y16.61902
G01 X-11.36330 Y16.50761
G01 X-11.09475 Y16.31754
G01 X-10.87765 Y16.07033
G01 X-10.74034 Y15.82976
G01 X-10.64257 Y15.51562
G01 X-10.61499 Y15.24000
G04 P0 ( dwell for no time -- G64 should not smooth over this point )
G00 Z1.00000 ( retract )

G00 X-29.06425 Y10.14125 ( rapid move to begin. )
G01 F100.00000
G01 Z-0.20000
G04 P0 ( dwell for no time -- G64 should not smooth over this point )
G01 F200.00000
G01 X-29.06425 Y10.14125
G01 X-29.42653 Y9.73958
G01 X-29.64119 Y9.44778
G04 P0 ( dwell for no time -- G64 should not smooth over this point )
G00 Z1.00000 ( retract )

G00 X-29.64137 Y9.44758 ( rapid move to begin. )
G01 F100.00000
G01 Z-0.20000
G04 P0 ( dwell for no time -- G64 should not smooth over this point )
G01 F200.00000
G01 X-29.64137 Y9.44758
G01 X-29.92798 Y9.16102
G01 X-29.92798 Y8.25500
G01 X-29.98394 Y7.76191
G01 X-30.11312 Y7.36425
G01 X-30.34345 Y6.95442
G01 X-30.67246 Y6.58292
G01 X-31.07632 Y6.29455
G01 X-31.48269 Y6.11510
G01 X-31.91695 Y6.02140
G01 X-32.43903 Y6.02140
G01 X-32.87326 Y6.11510
G01 X-33.27966 Y6.29455
G01 X-33.68352 Y6.58292
G01 X-33.98180 Y6.91213
G01 X-34.22157 Y7.31652
G01 X-34.37882 Y7.78718
G01 X-34.42800 Y8.25500
G01 X-34.42800 Y10.09299
G01 X-34.37880 Y10.55573
G01 X-34.24624 Y10.97620
G01 X-34.06140 Y11.32197
G01 X-33.78545 Y11.66579
G01 X-31.45998 Y13.99296
G01 X-31.45998 Y15.64998
G01 X-31.41081 Y16.11780
G01 X-31.26435 Y16.56761
G01 X-30.72188 Y17.75127
G01 X-30.74990 Y17.70162
G01 X-30.85432 Y17.61901
G01 X-30.94998 Y17.59999
G01 X-32.55000 Y17.59999
G01 X-32.68889 Y17.64213
G01 X-32.78096 Y17.75432
G01 X-32.79999 Y17.84998
G01 X-32.79999 Y20.25000
G01 X-32.78096 Y20.34565
G01 X-32.68889 Y20.45785
G01 X-32.59877 Y20.49518
G01 X-31.67682 Y20.49998
G01 X-31.62833 Y20.61032
G01 X-31.55353 Y20.70715
G01 X-30.72600 Y21.53470
G01 X-30.72600 Y21.93803
G01 X-30.90824 Y22.06323
G01 X-31.07545 Y22.24281
G01 X-31.19458 Y22.45733
G01 X-31.25305 Y22.64169
G01 X-31.27461 Y22.88611
G01 X-31.25305 Y23.07829
G01 X-31.12981 Y23.28527
G01 X-31.02709 Y23.41908
G01 X-30.86202 Y23.59315
G01 X-30.70314 Y23.72611
G01 X-30.52145 Y23.84786
G01 X-30.46603 Y23.87793
G01 X-30.36159 Y23.90013
G01 X-30.09039 Y23.90013
G01 X-29.90151 Y23.85860
G01 X-29.70098 Y23.76932
G01 X-29.54373 Y23.65675
G01 X-29.39298 Y23.49749
G01 X-29.27866 Y23.31037
G01 X-29.20571 Y23.10356
G01 X-29.17736 Y22.83386
G01 X-29.20571 Y22.61641
G01 X-29.25740 Y22.45733
G01 X-29.36227 Y22.26475
G01 X-29.54373 Y22.06323
G01 X-29.72598 Y21.93803
G01 X-29.72719 Y21.30308
G01 X-29.74155 Y21.20623
G01 X-29.79763 Y21.07085
G01 X-29.87243 Y20.97402
G01 X-30.69999 Y20.14647
G01 X-30.69999 Y17.84998
G01 X-30.72188 Y17.75127
G01 X-30.45998 Y18.32282
G01 X-30.45861 Y19.07611
G01 X-30.42590 Y19.33517
G01 X-30.35191 Y19.55841
G01 X-30.05945 Y20.06717
G01 X-29.89224 Y20.24675
G01 X-29.73499 Y20.35932
G01 X-29.50919 Y20.45538
G01 X-29.29362 Y20.49562
G01 X-29.12636 Y20.49562
G01 X-28.91155 Y20.45553
G01 X-27.19954 Y22.16755
G01 X-27.26545 Y22.24281
G01 X-27.36332 Y22.40961
G01 X-27.43627 Y22.61641
G01 X-27.46461 Y22.83386
G01 X-27.44714 Y23.05246
G01 X-27.38458 Y23.26264
G01 X-27.26545 Y23.47717
G01 X-27.13708 Y23.62180
G01 X-26.96294 Y23.75507
G01 X-26.74046 Y23.85860
G01 X-26.49962 Y23.90562
G01 X-26.33236 Y23.90562
G01 X-26.11676 Y23.86536
G01 X-25.89098 Y23.76932
G01 X-25.69487 Y23.62180
G01 X-25.56652 Y23.47717
G01 X-25.46863 Y23.31037
G01 X-25.38893 Y23.07829
G01 X-25.36736 Y22.83386
G01 X-25.38893 Y22.64169
G01 X-25.44737 Y22.45733
G01 X-25.56652 Y22.24281
G01 X-25.69487 Y22.09818
G01 X-25.89098 Y21.95065
G01 X-26.09146 Y21.86140
G01 X-27.41292 Y20.53991
G01 X-27.19735 Y20.65807
G01 X-26.87383 Y20.76176
G01 X-26.53612 Y20.79861
G01 X-25.51727 Y20.79998
G01 X-25.04730 Y22.06498
G01 X-24.79843 Y22.55708
G01 X-24.44105 Y23.00709
G01 X-24.00998 Y23.44009
G01 X-25.48987 Y24.91999
G01 X-29.44038 Y24.91999
G01 X-29.52402 Y24.81997
G01 X-30.46603 Y23.87793
G01 X-30.70314 Y23.72611
G01 X-30.87428 Y23.58019
G01 X-31.11078 Y23.30755
G01 X-31.24777 Y23.09627
G01 X-36.83066 Y17.51546
G01 X-37.17679 Y17.23697
G01 X-37.59589 Y17.02341
G01 X-38.05024 Y16.90169
G01 X-38.51996 Y16.87708
G01 X-39.00945 Y16.95874
G01 X-39.42370 Y17.11924
G01 X-39.83764 Y17.39293
G01 X-40.15080 Y17.70804
G01 X-40.20551 Y17.78975
G01 X-40.15999 Y17.39900
G01 X-40.16118 Y10.49647
G01 X-40.19956 Y10.15578
G01 X-40.28493 Y9.87440
G01 X-40.44231 Y9.56978
G01 X-40.58798 Y9.38469
G01 X-40.58798 Y8.25497
G01 X-40.63299 Y7.86587
G01 X-40.75115 Y7.51987
G01 X-40.92222 Y7.22635
G01 X-41.16700 Y6.95449
G01 X-41.46299 Y6.73943
G01 X-41.79720 Y6.59061
G01 X-42.12923 Y6.51863
G01 X-42.49478 Y6.51319
G01 X-42.87876 Y6.59061
G01 X-43.21299 Y6.73943
G01 X-43.48864 Y6.93801
G01 X-43.75376 Y7.22635
G01 X-43.94606 Y7.56763
G01 X-44.05384 Y7.91698
G01 X-44.08663 Y8.22886
G01 X-44.08800 Y10.09299
G01 X-44.05795 Y10.41014
G01 X-43.94429 Y10.78487
G01 X-43.80568 Y11.04420
G01 X-43.65998 Y11.22929
G01 X-43.65998 Y17.39900
G01 X-43.63984 Y17.60385
G01 X-43.52463 Y17.75874
G01 X-43.39994 Y18.30187
G01 X-43.51777 Y17.78859
G01 X-43.53311 Y17.74731
G01 X-43.64998 Y17.59999
G01 X-45.25000 Y17.59999
G01 X-45.38889 Y17.64213
G01 X-45.48096 Y17.75432
G01 X-45.49999 Y17.84998
G01 X-45.49999 Y20.25000
G01 X-45.48096 Y20.34565
G01 X-45.38889 Y20.45785
G01 X-45.29877 Y20.49518
G01 X-44.37682 Y20.49998
G01 X-44.32833 Y20.61032
G01 X-44.27002 Y20.68896
G01 X-43.68000 Y21.28070
G01 X-43.68000 Y21.93803
G01 X-43.86224 Y22.06323
G01 X-44.02945 Y22.24281
G01 X-44.14858 Y22.45733
G01 X-44.20705 Y22.64169
G01 X-44.22861 Y22.88611
G01 X-44.20705 Y23.07829
G01 X-44.14858 Y23.26264
G01 X-44.04370 Y23.45522
G01 X-43.86224 Y23.65675
G01 X-43.70499 Y23.76932
G01 X-43.50446 Y23.85860
G01 X-43.31559 Y23.90013
G01 X-43.09636 Y23.90562
G01 X-42.85551 Y23.85860
G01 X-42.63304 Y23.75507
G01 X-42.45889 Y23.62180
G01 X-42.33052 Y23.47717
G01 X-42.23266 Y23.31037
G01 X-42.15971 Y23.10356
G01 X-42.13136 Y22.83386
G01 X-42.15971 Y22.61641
G01 X-42.21140 Y22.45733
G01 X-42.31627 Y22.26475
G01 X-42.49773 Y22.06323
G01 X-42.67998 Y21.93803
G01 X-42.67998 Y21.07359
G01 X-42.69555 Y20.95223
G01 X-42.72854 Y20.86005
G01 X-42.82643 Y20.72002
G01 X-43.39999 Y20.14649
G01 X-43.39994 Y18.30187
G01 X-43.32554 Y18.42790
G01 X-43.15998 Y18.61279
G01 X-43.15998 Y19.05000
G01 X-43.13677 Y19.28404
G01 X-43.06131 Y19.53397
G01 X-42.74299 Y20.08749
G01 X-42.63108 Y20.21180
G01 X-42.45694 Y20.34507
G01 X-42.23446 Y20.44860
G01 X-41.99362 Y20.49562
G01 X-41.82636 Y20.49562
G01 X-41.61155 Y20.45553
G01 X-40.02423 Y22.04286
G01 X-40.21945 Y22.24281
G01 X-40.31732 Y22.40961
G01 X-40.39705 Y22.64169
G01 X-40.41861 Y22.83386
G01 X-40.39705 Y23.07829
G01 X-40.33858 Y23.26264
G01 X-40.21945 Y23.47717
G01 X-40.09108 Y23.62180
G01 X-39.89499 Y23.76932
G01 X-39.66919 Y23.86536
G01 X-39.45362 Y23.90562
G01 X-39.28636 Y23.90562
G01 X-39.02108 Y23.84923
G01 X-38.84498 Y23.76932
G01 X-38.68773 Y23.65675
G01 X-38.52052 Y23.47717
G01 X-38.42266 Y23.31037
G01 X-38.34971 Y23.10356
G01 X-38.32136 Y22.83386
G01 X-38.34293 Y22.64169
G01 X-38.40140 Y22.45733
G01 X-38.53698 Y22.22249
G01 X-38.68773 Y22.06323
G01 X-38.87407 Y21.93620
G01 X-38.90924 Y21.79884
G01 X-39.02776 Y21.65327
G01 X-40.88668 Y19.76618
G01 X-40.76807 Y19.55841
G01 X-40.68321 Y19.28404
G01 X-40.65999 Y19.04997
G01 X-40.65999 Y18.61279
G01 X-40.52194 Y18.43872
G01 X-40.20551 Y17.78975
G01 X-40.57553 Y18.54167
G01 X-40.64909 Y19.00626
G01 X-40.61904 Y19.50159
G01 X-40.50274 Y19.93034
G01 X-40.30226 Y20.32678
G01 X-39.97932 Y20.70115
G01 X-39.03025 Y21.65025
G01 X-38.90924 Y21.79884
G01 X-36.63541 Y24.07267
G01 X-40.37076 Y27.80800
G01 X-44.50999 Y27.80800
G01 X-44.77766 Y27.83797
G01 X-45.01053 Y27.91363
G01 X-45.22417 Y28.03327
G01 X-45.37570 Y28.15763
G01 X-47.03249 Y29.81272
G01 X-51.60772 Y25.23749
G01 X-51.74498 Y24.99749
G01 X-51.87541 Y24.85469
G01 X-52.05296 Y24.72566
G01 X-52.27879 Y24.62959
G01 X-52.46822 Y24.59073
G01 X-52.66162 Y24.58936
G01 X-52.87719 Y24.62959
G01 X-53.10299 Y24.72566
G01 X-53.28056 Y24.85469
G01 X-53.44170 Y25.03975
G01 X-53.55369 Y25.25420
G01 X-53.69174 Y25.46746
G01 X-53.79082 Y25.73703
G01 X-53.82628 Y25.99573
G01 X-53.80716 Y26.25613
G01 X-53.75305 Y26.45804
G01 X-53.63942 Y26.69311
G01 X-53.55808 Y26.80226
G01 X-53.52532 Y26.88537
G01 X-53.41099 Y27.07249
G01 X-53.26024 Y27.23175
G01 X-53.10299 Y27.34432
G01 X-52.98034 Y27.40040
G01 X-48.74727 Y31.63349
G01 X-49.37641 Y31.63349
G01 X-49.50932 Y31.39874
G01 X-49.70450 Y31.18808
G01 X-49.89558 Y31.05097
G01 X-50.10988 Y30.95404
G01 X-50.36409 Y30.89443
G01 X-50.62512 Y30.88897
G01 X-50.88158 Y30.93789
G01 X-51.14557 Y31.05097
G01 X-51.33668 Y31.18808
G01 X-51.47107 Y31.32917
G01 X-51.47109 Y29.58188
G01 X-51.50089 Y29.41366
G01 X-51.54275 Y29.32514
G01 X-51.61750 Y29.22834
G01 X-54.11478 Y26.73111
G01 X-54.08684 Y26.62745
G01 X-54.06799 Y26.43500
G01 X-54.06799 Y25.63495
G01 X-54.08684 Y25.44252
G01 X-54.17066 Y25.18461
G01 X-54.25427 Y25.03975
G01 X-54.39689 Y24.87318
G01 X-54.59298 Y24.72566
G01 X-54.81879 Y24.62959
G01 X-55.00822 Y24.59073
G01 X-55.20162 Y24.58936
G01 X-55.41719 Y24.62959
G01 X-55.66494 Y24.73990
G01 X-55.82056 Y24.85469
G01 X-55.95099 Y24.99749
G01 X-56.08658 Y25.23233
G01 X-56.14505 Y25.41666
G01 X-56.15887 Y25.53500
G01 X-56.61711 Y25.53500
G01 X-56.63093 Y25.41666
G01 X-56.71066 Y25.18461
G01 X-56.82498 Y24.99749
G01 X-56.95541 Y24.85469
G01 X-57.13298 Y24.72566
G01 X-57.35879 Y24.62959
G01 X-57.54822 Y24.59073
G01 X-57.76775 Y24.59073
G01 X-57.95719 Y24.62959
G01 X-58.15968 Y24.71377
G01 X-58.36056 Y24.85469
G01 X-58.40847 Y24.90582
G01 X-58.51728 Y25.25730
G01 X-58.55823 Y25.63495
G01 X-58.55795 Y26.44549
G01 X-58.52188 Y26.79283
G01 X-58.38340 Y26.97561
G01 X-58.17314 Y27.17244
G01 X-58.38929 Y26.96779
G01 X-58.51680 Y26.79951
G01 X-58.55795 Y26.44549
G01 X-58.54675 Y25.43414
G01 X-58.51395 Y25.23731
G01 X-58.40847 Y24.90582
G01 X-58.40849 Y23.34798
G01 X-53.06096 Y23.34798
G01 X-52.84137 Y23.32756
G01 X-52.56045 Y23.24235
G01 X-52.34681 Y23.12271
G01 X-52.17711 Y22.98187
G01 X-51.69408 Y22.49886
G01 X-51.55326 Y22.32917
G01 X-51.41486 Y22.07024
G01 X-51.35796 Y21.88266
G01 X-51.32916 Y21.63948
G01 X-51.32799 Y18.93278
G01 X-46.61411 Y14.21887
G01 X-46.44603 Y14.00840
G01 X-46.33488 Y13.79024
G01 X-46.26841 Y13.55458
G01 X-46.24799 Y13.33497
G01 X-46.24799 Y9.80498
G01 X-46.10232 Y9.78596
G01 X-46.02122 Y9.73176
G01 X-45.96701 Y9.65065
G01 X-45.94799 Y9.55500
G01 X-45.94799 Y6.95498
G01 X-45.96701 Y6.85932
G01 X-46.02122 Y6.77822
G01 X-46.10232 Y6.72401
G01 X-46.24799 Y6.70499
G01 X-46.24799 Y5.47273
G01 X-45.32721 Y4.55198
G01 X-39.50876 Y4.55198
G01 X-39.08798 Y4.97276
G01 X-39.08798 Y8.25500
G01 X-39.04297 Y8.64410
G01 X-38.94607 Y8.94235
G01 X-38.88798 Y9.05386
G01 X-38.88798 Y9.55500
G01 X-38.86896 Y9.65065
G01 X-38.77688 Y9.76285
G01 X-38.68677 Y9.80018
G01 X-38.13896 Y9.80498
G01 X-37.87877 Y9.91934
G01 X-37.54676 Y9.99132
G01 X-37.18121 Y9.99678
G01 X-36.79721 Y9.91934
G01 X-36.53701 Y9.80498
G01 X-35.98921 Y9.80018
G01 X-35.89909 Y9.76285
G01 X-35.80701 Y9.65065
G01 X-35.78799 Y9.55497
G01 X-35.78799 Y9.05391
G01 X-35.72990 Y8.94235
G01 X-35.63300 Y8.64410
G01 X-35.58799 Y8.25500
G01 X-35.58799 Y4.79798
G01 X-20.79186 Y4.79798
G01 X-18.99011 Y6.59973
G01 X-18.96582 Y6.81779
G01 X-18.80857 Y7.28845
G01 X-18.56880 Y7.69285
G01 X-18.25020 Y8.03854
G01 X-17.88998 Y8.29854
G01 X-17.43499 Y8.49663
G01 X-17.00017 Y8.58766
G01 X-16.55592 Y8.58904
G01 X-16.09496 Y8.49663
G01 X-15.64000 Y8.29854
G01 X-15.27978 Y8.03854
G01 X-14.96116 Y7.69285
G01 X-14.72138 Y7.28845
G01 X-14.56416 Y6.81779
G01 X-14.51635 Y6.37609
G01 X-14.55961 Y5.91236
G01 X-11.67521 Y3.02798
G01 X-4.58175 Y3.02798
G01 X-3.27299 Y4.33675
G01 X-3.27294 Y34.46681
G01 X-3.16408 Y34.84834
G01 X-3.12296 Y35.27199
G01 X-3.16680 Y34.83877
G01 X-3.27294 Y34.46681
G01 X-3.32262 Y34.40628
G01 X-6.36996 Y31.35724
G01 X-6.36996 Y30.12498
G01 X-6.27121 Y30.12018
G01 X-6.18109 Y30.08285
G01 X-6.08901 Y29.97065
G01 X-6.06999 Y29.87497
G01 X-6.06999 Y29.38465
G01 X-5.99280 Y29.21902
G01 X-5.92816 Y29.01805
G01 X-5.87342 Y28.66507
G01 X-5.88452 Y28.35887
G01 X-5.91985 Y28.16525
G01 X-5.98180 Y27.96266
G01 X-6.06999 Y27.76601
G01 X-6.07479 Y27.22621
G01 X-6.14322 Y27.09822
G01 X-6.27121 Y27.02979
G01 X-6.80781 Y27.02499
G01 X-8.35505 Y26.21618
G01 X-9.01692 Y25.94229
G01 X-9.43976 Y25.63508
G01 X-9.82833 Y25.21174
G01 X-10.14161 Y24.66909
G01 X-10.30989 Y24.14674
G01 X-10.36861 Y23.60112
G01 X-10.36998 Y15.49499
G01 X-10.31118 Y14.93469
G01 X-10.16892 Y14.46571
G01 X-10.11499 Y14.35461
G01 X-10.11499 Y6.35000
G01 X-10.05489 Y5.77822
G01 X-9.88662 Y5.25589
G01 X-9.60404 Y4.75551
G01 X-9.20509 Y4.30634
G01 X-8.76193 Y3.98267
G01 X-8.18952 Y3.72781
G01 X-7.62630 Y3.61368
G01 X-7.05170 Y3.61914
G01 X-6.49077 Y3.74396
G01 X-5.98998 Y3.96842
G01 X-5.54523 Y4.28988
G01 X-5.15666 Y4.71325
G01 X-4.84335 Y5.25589
G01 X-4.67507 Y5.77822
G01 X-4.61498 Y6.35000
G01 X-4.61498 Y15.24000
G01 X-4.67378 Y15.80027
G01 X-4.81604 Y16.26926
G01 X-4.86999 Y16.38036
G01 X-4.86999 Y23.57498
G01 X-4.93009 Y24.14674
G01 X-5.09836 Y24.66909
G01 X-5.38094 Y25.16944
G01 X-5.76138 Y25.60013
G01 X-6.22305 Y25.94229
G01 X-6.74576 Y26.18100
G01 X-7.30669 Y26.30584
G01 X-7.93328 Y26.30584
G01 X-8.35505 Y26.21618
G01 X-9.00433 Y25.94955
G01 X-9.20722 Y25.88509
G01 X-9.77900 Y25.82499
G01 X-13.84691 Y25.82499
G01 X-20.55388 Y19.11993
G01 X-21.00389 Y18.76255
G01 X-21.46958 Y18.52529
G01 X-23.20869 Y17.87741
G01 X-23.55980 Y17.58231
G01 X-23.86439 Y17.42493
G01 X-24.19386 Y17.33001
G01 X-24.51100 Y17.29999
G01 X-26.50998 Y17.29999
G01 X-26.89911 Y17.34500
G01 X-27.24508 Y17.46316
G01 X-27.53860 Y17.63420
G01 X-27.71732 Y17.79328
G01 X-27.15562 Y16.56761
G01 X-27.00505 Y16.09194
G01 X-26.95999 Y15.64998
G01 X-26.95999 Y13.06098
G01 X-27.00919 Y12.59825
G01 X-27.13993 Y12.18214
G01 X-27.37866 Y11.85984
G01 X-27.66591 Y11.54019
G01 X-29.06425 Y10.14125
G01 X-29.43936 Y9.72213
G01 X-29.64137 Y9.44758
G01 X-29.73469 Y9.26440
G01 X-29.89687 Y8.65916
G01 X-29.92422 Y8.13722
G01 X-29.83972 Y7.56882
G01 X-29.62826 Y7.00651
G01 X-29.33052 Y6.54550
G01 X-28.90863 Y6.11784
G01 X-28.42646 Y5.80471
G01 X-27.88973 Y5.59869
G01 X-27.34793 Y5.51150
G01 X-26.77381 Y5.53611
G01 X-26.19245 Y5.68764
G01 X-25.70289 Y5.93555
G01 X-25.23345 Y6.31045
G01 X-19.05391 Y12.48999
G01 X-16.73885 Y12.49136
G01 X-16.16796 Y12.55685
G01 X-15.64645 Y12.72774
G01 X-15.12824 Y13.03165
G01 X-14.72133 Y13.39987
G01 X-14.39766 Y13.84305
G01 X-14.15895 Y14.36576
G01 X-14.02867 Y14.97866
G01 X-14.03005 Y15.52745
G01 X-14.14282 Y16.06451
G01 X-14.38341 Y16.61498
G01 X-14.70487 Y17.05976
G01 X-15.12824 Y17.44833
G01 X-15.64645 Y17.75224
G01 X-16.16796 Y17.92313
G01 X-16.76499 Y17.98998
G01 X-20.21749 Y17.98879
G01 X-20.75327 Y17.93118
G01 X-21.26755 Y17.77017
G01 X-21.74052 Y17.51190
G01 X-22.13752 Y17.18452
G01 X-27.13993 Y12.18214
G04 P0 ( dwell for no time -- G64 should not smooth over this point )
G00 Z1.00000 ( retract )

G00 X-28.10472 Y18.87131 ( rapid move to begin. )
G01 F100.00000
G01 Z-0.20000
G04 P0 ( dwell for no time -- G64 should not smooth over this point )
G01 F200.00000
G01 X-28.10472 Y18.87131
G01 X-28.06863 Y18.54264
G01 X-28.02059 Y18.30956
G01 X-27.71732 Y17.79328
G01 X-27.80429 Y17.91581
G01 X-28.02059 Y18.30956
G01 X-28.07175 Y18.55770
G01 X-28.10472 Y18.87131
G01 X-28.13634 Y19.67941
G01 X-28.01104 Y19.94299
G01 X-27.78821 Y20.20153
G01 X-27.41292 Y20.53991
G01 X-27.77338 Y20.21878
G01 X-28.01851 Y19.93435
G01 X-28.18684 Y19.76603
G01 X-28.13634 Y19.67941
G04 P0 ( dwell for no time -- G64 should not smooth over this point )
G00 Z1.00000 ( retract )

G00 X-24.17757 Y32.00768 ( rapid move to begin. )
G01 F100.00000
G01 Z-0.20000
G04 P0 ( dwell for no time -- G64 should not smooth over this point )
G01 F200.00000
G01 X-24.17757 Y32.00768
G01 X-25.36223 Y30.81960
G01 X-24.17757 Y32.00768
G01 X-24.08357 Y32.14969
G01 X-23.96495 Y32.42833
G04 P0 ( dwell for no time -- G64 should not smooth over this point )
G00 Z1.00000 ( retract )

G00 X-25.66546 Y33.74913 ( rapid move to begin. )
G01 F100.00000
G01 Z-0.20000
G04 P0 ( dwell for no time -- G64 should not smooth over this point )
G01 F200.00000
G01 X-25.66546 Y33.74913
G01 X-25.73373 Y33.81675
G01 X-25.91598 Y33.94194
G01 X-25.91598 Y34.95238
G01 X-25.93152 Y35.07374
G01 X-25.96454 Y35.16592
G01 X-26.06243 Y35.30595
G01 X-26.88999 Y36.13351
G01 X-26.88999 Y37.63000
G01 X-26.93213 Y37.76889
G01 X-26.99499 Y37.83287
G01 X-27.01864 Y37.82766
G01 X-26.28836 Y38.55451
G01 X-26.21925 Y38.68374
G01 X-26.18948 Y38.85199
G01 X-26.18948 Y39.67147
G04 P0 ( dwell for no time -- G64 should not smooth over this point )
G00 Z1.00000 ( retract )

G00 X-27.04000 Y39.35946 ( rapid move to begin. )
G01 F100.00000
G01 Z-0.20000
G04 P0 ( dwell for no time -- G64 should not smooth over this point )
G01 F200.00000
G01 X-27.04000 Y39.35946
G01 X-27.07607 Y39.72784
G01 X-27.04000 Y39.35946
G01 X-27.07607 Y39.01211
G01 X-27.20010 Y38.84625
G01 X-27.33591 Y38.70300
G01 X-27.20010 Y38.84625
G04 P0 ( dwell for no time -- G64 should not smooth over this point )
G00 Z1.00000 ( retract )

G00 X-28.43997 Y40.20038 ( rapid move to begin. )
G01 F100.00000
G01 Z-0.20000
G04 P0 ( dwell for no time -- G64 should not smooth over this point )
G01 F200.00000
G01 X-28.43997 Y40.20038
G01 X-28.22478 Y40.24663
G01 X-28.02362 Y40.26804
G01 X-27.58262 Y40.23263
G01 X-27.22596 Y39.92128
G01 X-27.07607 Y39.72784
G01 X-27.21455 Y39.91061
G01 X-27.49207 Y40.17040
G01 X-27.58262 Y40.23263
G01 X-27.83482 Y40.26690
G01 X-28.02362 Y40.26804
G01 X-28.23812 Y40.24523
G01 X-28.43997 Y40.20038
G01 X-28.67119 Y40.12049
G01 X-28.78945 Y39.98717
G01 X-28.85869 Y39.86997
G01 X-32.94939 Y39.87000
G01 X-33.19986 Y40.12047
G01 X-28.67119 Y40.12049
G04 P0 ( dwell for no time -- G64 should not smooth over this point )
G00 Z1.00000 ( retract )

G00 X-30.53408 Y41.12047 ( rapid move to begin. )
G01 F100.00000
G01 Z-0.20000
G04 P0 ( dwell for no time -- G64 should not smooth over this point )
G01 F200.00000
G01 X-30.53408 Y41.12047
G01 X-33.20928 Y41.12049
G01 X-33.81939 Y41.72212
G01 X-33.94865 Y41.79120
G01 X-34.09239 Y41.81978
G01 X-38.43099 Y41.82100
G01 X-39.30947 Y42.69948
G01 X-37.62609 Y42.70070
G01 X-37.43706 Y42.74805
G01 X-37.29703 Y42.84594
G01 X-31.63286 Y48.51011
G01 X-31.38800 Y48.47999
G01 X-30.58798 Y48.47999
G01 X-30.36969 Y48.50293
G01 X-30.13761 Y48.58266
G01 X-29.97081 Y48.68052
G01 X-29.82618 Y48.80889
G01 X-29.69290 Y48.98304
G01 X-29.58937 Y49.20551
G01 X-29.54236 Y49.44636
G01 X-29.54236 Y49.61362
G01 X-29.58259 Y49.82919
G01 X-29.67866 Y50.05499
G01 X-29.79123 Y50.21224
G01 X-29.95049 Y50.36299
G01 X-30.18533 Y50.49858
G01 X-30.36969 Y50.55705
G01 X-30.56186 Y50.57861
G01 X-31.41411 Y50.57861
G01 X-31.60629 Y50.55705
G01 X-31.79064 Y50.49858
G01 X-32.00517 Y50.37945
G01 X-32.13844 Y50.26129
G01 X-32.22249 Y50.01077
G01 X-32.28604 Y49.61359
G01 X-32.28183 Y49.40196
G01 X-32.26732 Y49.80236
G01 X-32.21838 Y50.02997
G01 X-32.13844 Y50.26129
G01 X-32.13847 Y51.33868
G01 X-32.23120 Y51.62774
G01 X-32.28604 Y51.98636
G01 X-32.28490 Y52.17513
G01 X-32.25063 Y52.42730
G01 X-32.05000 Y52.68021
G01 X-31.92079 Y52.80127
G01 X-32.12544 Y52.58511
G01 X-32.25063 Y52.42730
G01 X-32.28490 Y51.96482
G01 X-32.22767 Y51.60457
G01 X-32.13847 Y51.33868
G01 X-31.98322 Y51.20627
G01 X-31.83837 Y51.12266
G01 X-31.58045 Y51.03881
G01 X-31.38800 Y51.01999
G01 X-30.58798 Y51.01999
G01 X-30.36969 Y51.04293
G01 X-30.26923 Y51.07412
G01 X-24.50300 Y45.30788
G01 X-24.50300 Y45.13694
G01 X-24.72408 Y44.97680
G01 X-24.85245 Y44.83217
G01 X-24.95032 Y44.66537
G01 X-25.02327 Y44.45856
G01 X-25.05161 Y44.24111
G01 X-25.05299 Y43.41498
G01 X-25.03414 Y43.22252
G01 X-24.95032 Y42.96461
G01 X-24.85245 Y42.79781
G01 X-24.72408 Y42.65318
G01 X-24.50468 Y42.49377
G01 X-24.30219 Y42.40959
G01 X-24.13859 Y42.37485
G01 X-23.86739 Y42.37485
G01 X-23.70379 Y42.40959
G01 X-23.50130 Y42.49377
G01 X-23.32073 Y42.61823
G01 X-23.19129 Y42.75379
G04 P0 ( dwell for no time -- G64 should not smooth over this point )
G00 Z1.00000 ( retract )

G00 X-21.47875 Y42.36936 ( rapid move to begin. )
G01 F100.00000
G01 Z-0.20000
G04 P0 ( dwell for no time -- G64 should not smooth over this point )
G01 F200.00000
G01 X-21.47875 Y42.36936
G01 X-21.77070 Y42.51818
G01 X-22.06739 Y42.74840
G01 X-21.77070 Y42.51818
G04 P0 ( dwell for no time -- G64 should not smooth over this point )
G00 Z1.00000 ( retract )

G00 X-22.20285 Y42.89125 ( rapid move to begin. )
G01 F100.00000
G01 Z-0.20000
G04 P0 ( dwell for no time -- G64 should not smooth over this point )
G01 F200.00000
G01 X-22.20285 Y42.89125
G01 X-22.06739 Y42.74840
G01 X-22.20285 Y42.89125
G01 X-22.32688 Y43.05711
G01 X-22.36295 Y43.40443
G01 X-22.35502 Y44.30052
G01 X-22.32200 Y44.59346
G01 X-22.21344 Y44.94418
G01 X-22.31895 Y44.61264
G01 X-22.35418 Y44.39275
G01 X-22.36323 Y43.41495
G01 X-22.32688 Y43.05711
G04 P0 ( dwell for no time -- G64 should not smooth over this point )
G00 Z1.00000 ( retract )

G00 X-23.12167 Y43.04071 ( rapid move to begin. )
G01 F100.00000
G01 Z-0.20000
G04 P0 ( dwell for no time -- G64 should not smooth over this point )
G01 F200.00000
G01 X-23.12167 Y43.04071
G01 X-23.08322 Y43.41495
G01 X-23.08352 Y44.21817
G01 X-23.09231 Y43.23517
G01 X-23.12167 Y43.04071
G01 X-23.19129 Y42.75379
G01 X-23.14184 Y42.64025
G01 X-23.06704 Y42.54343
G01 X-22.09000 Y41.56639
G01 X-22.09000 Y40.92694
G01 X-22.27224 Y40.80175
G01 X-22.45370 Y40.60022
G01 X-22.54921 Y40.43205
G01 X-22.61027 Y40.24856
G01 X-22.63999 Y40.00500
G01 X-22.61027 Y39.76141
G01 X-22.54921 Y39.57792
G01 X-22.45370 Y39.40975
G01 X-22.27224 Y39.20823
G01 X-22.09000 Y39.08303
G01 X-22.09000 Y34.30328
G01 X-23.96495 Y32.42833
G01 X-23.96498 Y39.64478
G01 X-23.98055 Y39.76614
G01 X-24.03663 Y39.90152
G01 X-24.11143 Y39.99835
G01 X-26.54419 Y42.42260
G01 X-26.67345 Y42.49169
G01 X-26.81719 Y42.52029
G01 X-27.95237 Y42.52148
G01 X-29.58244 Y44.15155
G01 X-29.54236 Y44.36636
G01 X-29.54236 Y44.53362
G01 X-29.58937 Y44.77446
G01 X-29.69290 Y44.99694
G01 X-29.82618 Y45.17108
G01 X-29.97081 Y45.29945
G01 X-30.18533 Y45.41858
G01 X-30.39552 Y45.48114
G01 X-30.58798 Y45.49999
G01 X-31.39996 Y45.49935
G01 X-30.97418 Y45.93999
G01 X-30.58800 Y45.93999
G01 X-30.36969 Y45.96293
G01 X-30.18533 Y46.02140
G01 X-29.97081 Y46.14052
G01 X-29.82618 Y46.26889
G01 X-29.67866 Y46.46498
G01 X-29.58937 Y46.66551
G01 X-29.54785 Y46.85439
G01 X-29.54785 Y47.12559
G01 X-29.58937 Y47.31446
G01 X-29.67866 Y47.51499
G01 X-29.82618 Y47.71108
G01 X-29.97081 Y47.83945
G01 X-30.13761 Y47.93732
G01 X-30.36969 Y48.01705
G01 X-30.56186 Y48.03861
G01 X-31.38800 Y48.03999
G01 X-31.60629 Y48.01705
G01 X-31.83837 Y47.93732
G01 X-32.00517 Y47.83945
G01 X-32.14980 Y47.71108
G01 X-32.29732 Y47.51499
G01 X-32.38660 Y47.31446
G01 X-32.43362 Y47.07362
G01 X-32.43362 Y46.90636
G01 X-32.39338 Y46.69079
G01 X-32.29732 Y46.46498
G01 X-32.18475 Y46.30773
G01 X-32.09447 Y46.21911
G01 X-32.99203 Y45.32155
G01 X-33.06684 Y45.22473
G01 X-33.10870 Y45.13623
G01 X-33.13849 Y44.96798
G01 X-33.13849 Y43.93199
G01 X-33.10870 Y43.76374
G01 X-33.06684 Y43.67525
G01 X-32.99203 Y43.57842
G01 X-30.53408 Y41.12047
G01 X-30.25320 Y41.00733
G01 X-30.08633 Y40.97337
G01 X-27.42197 Y40.97071
G01 X-27.28267 Y40.95687
G01 X-27.17432 Y40.86812
G01 X-26.43256 Y40.12278
G01 X-26.30810 Y39.95014
G01 X-26.18948 Y39.67147
G01 X-25.66546 Y39.14747
G01 X-25.66546 Y33.74913
G01 X-25.55370 Y33.38805
G01 X-25.51600 Y33.00946
G01 X-25.54702 Y32.71068
G01 X-25.51600 Y33.00946
G04 P0 ( dwell for no time -- G64 should not smooth over this point )
G00 Z1.00000 ( retract )

G00 X-26.93398 Y31.41924 ( rapid move to begin. )
G01 F100.00000
G01 Z-0.20000
G04 P0 ( dwell for no time -- G64 should not smooth over this point )
G01 F200.00000
G01 X-26.93398 Y31.41924
G01 X-25.89571 Y31.41944
G01 X-25.75867 Y31.43308
G01 X-25.67038 Y31.50537
G01 X-24.89695 Y32.27880
G01 X-24.82908 Y32.36267
G01 X-24.81986 Y32.45526
G01 X-24.82908 Y32.36267
G01 X-24.87808 Y32.29780
G01 X-25.65032 Y31.52183
G01 X-25.75867 Y31.43308
G01 X-25.88814 Y31.41947
G01 X-26.93398 Y31.41924
G01 X-27.07328 Y31.43308
G01 X-27.18163 Y31.52183
G01 X-27.91412 Y32.25432
G01 X-28.00286 Y32.36267
G01 X-28.01899 Y32.92602
G01 X-28.00286 Y32.36267
G04 P0 ( dwell for no time -- G64 should not smooth over this point )
G00 Z1.00000 ( retract )

G00 X-28.68653 Y32.01325 ( rapid move to begin. )
G01 F100.00000
G01 Z-0.20000
G04 P0 ( dwell for no time -- G64 should not smooth over this point )
G01 F200.00000
G01 X-28.68653 Y32.01325
G01 X-27.41811 Y30.74599
G01 X-27.22408 Y30.71873
G01 X-25.60556 Y30.71894
G01 X-25.46848 Y30.73258
G01 X-25.36223 Y30.81960
G01 X-25.46848 Y30.73258
G01 X-25.59804 Y30.71896
G01 X-27.22408 Y30.71873
G01 X-27.41811 Y30.74599
G01 X-28.68653 Y32.01325
G01 X-28.77228 Y32.14733
G01 X-28.86697 Y32.36808
G01 X-28.86700 Y32.72239
G01 X-29.17734 Y33.03273
G01 X-29.19484 Y32.82752
G01 X-29.22278 Y32.72389
G01 X-28.86697 Y32.36808
G04 P0 ( dwell for no time -- G64 should not smooth over this point )
G00 Z1.00000 ( retract )

G00 X-29.17734 Y33.03273 ( rapid move to begin. )
G01 F100.00000
G01 Z-0.20000
G04 P0 ( dwell for no time -- G64 should not smooth over this point )
G01 F200.00000
G01 X-29.17734 Y33.03273
G01 X-29.36756 Y33.38680
G01 X-29.48610 Y33.54370
G01 X-29.61571 Y33.68200
G01 X-29.86862 Y33.88263
G01 X-29.98765 Y33.89879
G01 X-29.86862 Y33.88263
G04 P0 ( dwell for no time -- G64 should not smooth over this point )
G00 Z1.00000 ( retract )

G00 X-31.12595 Y33.00946 ( rapid move to begin. )
G01 F100.00000
G01 Z-0.20000
G04 P0 ( dwell for no time -- G64 should not smooth over this point )
G01 F200.00000
G01 X-31.12595 Y33.00946
G01 X-31.05948 Y32.38475
G01 X-31.12595 Y33.00946
G01 X-31.08988 Y33.37784
G01 X-30.96585 Y33.54370
G01 X-30.83623 Y33.68200
G01 X-30.58333 Y33.88263
G01 X-30.30962 Y33.91804
G01 X-29.98765 Y33.89879
G01 X-30.30962 Y33.91804
G04 P0 ( dwell for no time -- G64 should not smooth over this point )
G00 Z1.00000 ( retract )

G00 X-29.69814 Y34.62048 ( rapid move to begin. )
G01 F100.00000
G01 Z-0.20000
G04 P0 ( dwell for no time -- G64 should not smooth over this point )
G01 F200.00000
G01 X-29.69814 Y34.62048
G01 X-30.74652 Y34.62048
G01 X-29.69814 Y34.62048
G01 X-29.56867 Y34.60686
G01 X-29.46743 Y34.52490
G01 X-28.07960 Y33.13367
G01 X-28.03058 Y33.06877
G01 X-28.01899 Y32.92602
G01 X-28.03058 Y33.06877
G01 X-28.07084 Y33.12206
G01 X-29.48549 Y34.53950
G01 X-29.56867 Y34.60686
G04 P0 ( dwell for no time -- G64 should not smooth over this point )
G00 Z1.00000 ( retract )

G00 X-27.31595 Y33.00946 ( rapid move to begin. )
G01 F100.00000
G01 Z-0.20000
G04 P0 ( dwell for no time -- G64 should not smooth over this point )
G01 F200.00000
G01 X-27.31595 Y33.00946
G01 X-27.27988 Y32.66211
G01 X-27.02001 Y32.35300
G01 X-26.77333 Y32.15731
G01 X-26.50823 Y32.12305
G01 X-26.31082 Y32.12305
G01 X-26.05862 Y32.15731
G01 X-25.88339 Y32.29630
G01 X-25.68473 Y32.48701
G01 X-25.55712 Y32.65541
G01 X-25.54702 Y32.71068
G01 X-25.55207 Y32.66211
G01 X-25.67607 Y32.49625
G01 X-25.80571 Y32.35795
G01 X-26.05862 Y32.15731
G01 X-26.31082 Y32.12305
G01 X-26.49959 Y32.12193
G01 X-26.77333 Y32.15731
G01 X-27.02623 Y32.35795
G01 X-27.15585 Y32.49625
G01 X-27.27988 Y32.66211
G01 X-27.31595 Y33.00946
G01 X-27.29657 Y33.30618
G01 X-27.30746 Y33.56712
G01 X-29.06433 Y35.32454
G01 X-29.20436 Y35.42243
G01 X-29.39339 Y35.46978
G01 X-31.03408 Y35.47100
G01 X-31.15544 Y35.45543
G01 X-31.29082 Y35.39934
G01 X-31.38764 Y35.32454
G01 X-34.44270 Y32.26948
G01 X-38.63871 Y32.26948
G01 X-38.52052 Y32.40281
G01 X-38.40140 Y32.61733
G01 X-38.34293 Y32.80169
G01 X-38.32136 Y32.99386
G01 X-38.34971 Y33.26356
G01 X-38.40140 Y33.42264
G01 X-38.50627 Y33.61522
G01 X-38.66741 Y33.80029
G01 X-38.86998 Y33.94194
G01 X-38.86998 Y35.20638
G01 X-38.89977 Y35.37463
G01 X-38.94163 Y35.46312
G01 X-39.01643 Y35.55995
G01 X-39.58999 Y36.13348
G01 X-39.58999 Y37.58049
G01 X-36.18997 Y37.58169
G01 X-36.04626 Y37.61029
G01 X-35.91700 Y37.67938
G01 X-35.22342 Y38.36444
G01 X-35.00862 Y38.32436
G01 X-34.84136 Y38.32436
G01 X-34.62655 Y38.36444
G01 X-34.00986 Y37.74945
G01 X-33.88802 Y37.66805
G01 X-33.74776 Y37.62550
G01 X-28.98999 Y37.61948
G04 P0 ( dwell for no time -- G64 should not smooth over this point )
G00 Z1.00000 ( retract )

G00 X-28.74000 Y37.74973 ( rapid move to begin. )
G01 F100.00000
G01 Z-0.20000
G04 P0 ( dwell for no time -- G64 should not smooth over this point )
G01 F200.00000
G01 X-28.74000 Y37.74973
G01 X-27.41023 Y37.75001
G01 X-27.28796 Y37.76208
G01 X-27.01864 Y37.82766
G01 X-27.38625 Y37.75238
G01 X-28.74000 Y37.74973
G01 X-28.85973 Y37.71979
G01 X-28.98999 Y37.61948
G01 X-28.98999 Y36.02998
G01 X-28.94785 Y35.89109
G01 X-28.87889 Y35.82213
G01 X-28.78877 Y35.78479
G01 X-27.86682 Y35.77999
G01 X-27.81833 Y35.66965
G01 X-27.74353 Y35.57283
G01 X-26.91600 Y34.74527
G01 X-26.91600 Y33.94194
G01 X-27.13708 Y33.78180
G01 X-27.26545 Y33.63717
G01 X-27.30746 Y33.56712
G04 P0 ( dwell for no time -- G64 should not smooth over this point )
G00 Z1.00000 ( retract )

G00 X-15.65171 Y44.96547 ( rapid move to begin. )
G01 F100.00000
G01 Z-0.20000
G04 P0 ( dwell for no time -- G64 should not smooth over this point )
G01 F200.00000
G01 X-15.65171 Y44.96547
G01 X-14.57422 Y44.96549
G01 X-14.34297 Y45.04538
G01 X-14.11536 Y45.09432
G01 X-13.92662 Y45.11304
G01 X-13.57059 Y45.09432
G01 X-13.48562 Y45.07763
G01 X-13.23271 Y44.87700
G01 X-13.00041 Y44.60489
G01 X-12.89469 Y44.43514
G01 X-12.79357 Y44.22696
G01 X-12.79299 Y43.41498
G01 X-12.82271 Y43.17141
G01 X-12.88377 Y42.98793
G01 X-12.97927 Y42.81975
G01 X-13.12189 Y42.65318
G01 X-13.34130 Y42.49377
G01 X-13.54379 Y42.40959
G01 X-13.75936 Y42.36936
G01 X-13.92662 Y42.36936
G01 X-14.19189 Y42.42575
G01 X-14.36799 Y42.50566
G01 X-14.52524 Y42.61823
G01 X-14.69245 Y42.79781
G01 X-14.80221 Y42.98793
G01 X-14.86327 Y43.17141
G01 X-14.89161 Y43.38886
G01 X-14.89299 Y44.21500
G01 X-14.87414 Y44.40745
G01 X-14.80221 Y44.64205
G01 X-14.69245 Y44.83217
G01 X-14.57422 Y44.96549
G01 X-14.32380 Y45.04949
G01 X-14.01427 Y45.09963
G01 X-13.74844 Y45.11195
G01 X-13.48562 Y45.07763
G01 X-13.22187 Y44.86430
G01 X-12.99256 Y44.59229
G01 X-12.79357 Y44.22696
G01 X-12.35299 Y43.80118
G01 X-12.35299 Y43.41500
G01 X-12.33414 Y43.22252
G01 X-12.26221 Y42.98793
G01 X-12.15245 Y42.79781
G01 X-12.02408 Y42.65318
G01 X-11.82799 Y42.50566
G01 X-11.65189 Y42.42575
G01 X-11.43859 Y42.37485
G01 X-11.21936 Y42.36936
G01 X-11.00379 Y42.40959
G01 X-10.77798 Y42.50566
G01 X-10.62073 Y42.61823
G01 X-10.45352 Y42.79781
G01 X-10.35566 Y42.96461
G01 X-10.28271 Y43.17141
G01 X-10.26211 Y43.31500
G01 X-9.80387 Y43.31500
G01 X-9.78327 Y43.17141
G01 X-9.73158 Y43.01233
G01 X-9.61245 Y42.79781
G01 X-9.44524 Y42.61823
G01 X-9.26468 Y42.49377
G01 X-9.06219 Y42.40959
G01 X-8.84662 Y42.36936
G01 X-8.67936 Y42.36936
G01 X-8.46379 Y42.40959
G01 X-8.21604 Y42.51990
G01 X-8.04189 Y42.65318
G01 X-7.91352 Y42.79781
G01 X-7.80377 Y42.98793
G01 X-7.74271 Y43.17141
G01 X-7.71299 Y43.41498
G01 X-7.71436 Y44.24111
G01 X-7.74271 Y44.45856
G01 X-7.80377 Y44.64205
G01 X-7.91352 Y44.83217
G01 X-8.08073 Y45.01175
G01 X-8.23798 Y45.12432
G01 X-8.46379 Y45.22038
G01 X-8.67936 Y45.26062
G01 X-8.84662 Y45.26062
G01 X-9.06219 Y45.22038
G01 X-9.26468 Y45.13621
G01 X-9.44524 Y45.01175
G01 X-9.61245 Y44.83217
G01 X-9.73158 Y44.61764
G01 X-9.78327 Y44.45856
G01 X-9.80387 Y44.31497
G01 X-10.26211 Y44.31497
G01 X-10.28271 Y44.45856
G01 X-10.33440 Y44.61764
G01 X-10.43927 Y44.81022
G01 X-10.58189 Y44.97680
G01 X-10.77798 Y45.12432
G01 X-10.95408 Y45.20423
G01 X-11.16739 Y45.25513
G01 X-11.43859 Y45.25513
G01 X-11.65189 Y45.20423
G01 X-11.82799 Y45.12432
G01 X-11.98524 Y45.01175
G01 X-12.07386 Y44.92147
G01 X-12.98961 Y45.83552
G01 X-13.11143 Y45.91693
G01 X-13.25171 Y45.95947
G01 X-18.94561 Y45.96549
G01 X-28.64424 Y55.66405
G01 X-28.74104 Y55.73883
G01 X-28.92450 Y55.80449
G01 X-29.31287 Y55.81048
G01 X-29.73461 Y56.23052
G01 X-29.81325 Y56.28884
G01 X-29.92679 Y56.33829
G01 X-29.79123 Y56.46773
G01 X-29.66603 Y56.64998
G01 X-29.49509 Y56.64998
G01 X-24.05355 Y51.20843
G01 X-23.95672 Y51.13363
G01 X-23.86823 Y51.09174
G01 X-23.69998 Y51.06198
G01 X-13.77709 Y51.06198
G01 X-7.22620 Y44.51111
G01 X-7.25414 Y44.40745
G01 X-7.27299 Y44.21500
G01 X-7.27299 Y43.41498
G01 X-7.25414 Y43.22252
G01 X-7.17032 Y42.96461
G01 X-7.07245 Y42.79781
G01 X-6.94408 Y42.65318
G01 X-6.72468 Y42.49377
G01 X-6.52216 Y42.40959
G01 X-6.35859 Y42.37485
G01 X-6.08739 Y42.37485
G01 X-5.92379 Y42.40959
G01 X-5.72130 Y42.49377
G01 X-5.54073 Y42.61823
G01 X-5.47294 Y42.68534
G01 X-5.36415 Y43.03649
G01 X-5.32298 Y43.41495
G01 X-5.33326 Y44.31487
G01 X-5.33202 Y43.23723
G01 X-5.36722 Y43.01744
G01 X-5.47294 Y42.68534
G01 X-5.47299 Y35.78977
G01 X-8.50387 Y32.75886
G01 X-8.64471 Y32.58917
G01 X-8.76435 Y32.37553
G01 X-8.84956 Y32.09458
G01 X-8.86998 Y31.87499
G01 X-8.86998 Y31.15676
G01 X-9.20722 Y31.26489
G01 X-9.77900 Y31.32498
G01 X-14.98600 Y31.32498
G01 X-15.49822 Y31.27576
G01 X-16.01526 Y31.12392
G01 X-16.49275 Y30.87413
G01 X-16.93052 Y30.51952
G01 X-21.53511 Y25.91498
G01 X-22.90427 Y27.28415
G01 X-22.80986 Y27.91800
G01 X-21.88842 Y28.83944
G01 X-21.67362 Y28.79936
G01 X-21.50636 Y28.79936
G01 X-21.29079 Y28.83962
G01 X-21.08830 Y28.92379
G01 X-20.86889 Y29.08318
G01 X-20.72627 Y29.24975
G01 X-20.63077 Y29.41792
G01 X-20.55884 Y29.65252
G01 X-20.53999 Y29.84500
G01 X-20.56971 Y30.08856
G01 X-20.64266 Y30.29537
G01 X-20.72627 Y30.44022
G01 X-20.86889 Y30.60680
G01 X-21.04304 Y30.74007
G01 X-21.26551 Y30.84360
G01 X-21.45439 Y30.88513
G01 X-21.67362 Y30.89062
G01 X-21.93889 Y30.83423
G01 X-22.11499 Y30.75432
G01 X-22.31108 Y30.60680
G01 X-22.45370 Y30.44022
G01 X-22.54921 Y30.27205
G01 X-22.61027 Y30.08856
G01 X-22.63999 Y29.84500
G01 X-22.62114 Y29.65252
G01 X-22.59320 Y29.54889
G01 X-23.51697 Y28.62511
G01 X-24.89413 Y28.41998
G01 X-29.71434 Y28.41998
G01 X-29.98998 Y28.61854
G01 X-30.41970 Y28.80987
G01 X-30.85396 Y28.90357
G01 X-31.32404 Y28.90904
G01 X-31.81027 Y28.80987
G01 X-32.23999 Y28.61854
G01 X-32.63903 Y28.32357
G01 X-32.96011 Y27.95222
G01 X-33.92178 Y28.91386
G01 X-33.89793 Y28.99169
G01 X-33.87636 Y29.18386
G01 X-33.89384 Y29.40246
G01 X-33.92178 Y29.50611
G01 X-31.05948 Y32.38475
G01 X-30.94708 Y32.25818
G01 X-30.75099 Y32.11065
G01 X-30.52519 Y32.01462
G01 X-30.30962 Y31.97436
G01 X-30.14236 Y31.97436
G01 X-29.92755 Y32.01444
G01 X-27.92804 Y30.01493
G01 X-27.83124 Y29.94015
G01 X-27.74272 Y29.89829
G01 X-27.57449 Y29.86849
G01 X-25.31768 Y29.86849
G01 X-25.19634 Y29.88407
G01 X-25.06094 Y29.94015
G01 X-24.96414 Y30.01493
G01 X-21.18886 Y33.79869
G01 X-21.11977 Y33.92795
G01 X-21.08998 Y34.09620
G01 X-21.09000 Y39.08303
G01 X-20.90773 Y39.20823
G01 X-20.72627 Y39.40975
G01 X-20.63077 Y39.57792
G01 X-20.56971 Y39.76141
G01 X-20.53999 Y40.00500
G01 X-20.56971 Y40.24856
G01 X-20.63077 Y40.43205
G01 X-20.72627 Y40.60022
G01 X-20.88741 Y40.78529
G01 X-21.09000 Y40.92694
G01 X-21.09119 Y41.79799
G01 X-21.10555 Y41.89484
G01 X-21.16163 Y42.03022
G01 X-21.23643 Y42.12704
G01 X-21.47875 Y42.36936
G01 X-21.32739 Y42.37485
G01 X-21.11408 Y42.42575
G01 X-20.93798 Y42.50566
G01 X-20.78073 Y42.61823
G01 X-20.61352 Y42.79781
G01 X-20.50377 Y42.98793
G01 X-20.44271 Y43.17141
G01 X-20.41299 Y43.41498
G01 X-20.41299 Y44.21500
G01 X-20.44271 Y44.45856
G01 X-20.50377 Y44.64205
G01 X-20.61352 Y44.83217
G01 X-20.78073 Y45.01175
G01 X-20.96298 Y45.13694
G01 X-20.96298 Y46.56864
G01 X-19.48894 Y45.09625
G01 X-19.29275 Y45.08840
G01 X-19.00662 Y45.11304
G01 X-18.81782 Y45.11190
G01 X-18.45757 Y45.05467
G01 X-18.19171 Y44.96547
G01 X-17.11422 Y44.96549
G01 X-16.84838 Y45.05467
G01 X-16.44747 Y45.11190
G01 X-16.08483 Y45.09023
G01 X-15.88298 Y45.04538
G01 X-15.65171 Y44.96547
G01 X-15.53352 Y44.83217
G01 X-15.43566 Y44.66537
G01 X-15.35184 Y44.40745
G01 X-15.33299 Y44.21500
G01 X-15.33299 Y43.41498
G01 X-15.36271 Y43.17141
G01 X-15.42377 Y42.98793
G01 X-15.51927 Y42.81975
G01 X-15.66189 Y42.65318
G01 X-15.88130 Y42.49377
G01 X-16.08379 Y42.40959
G01 X-16.29936 Y42.36936
G01 X-16.46662 Y42.36936
G01 X-16.73189 Y42.42575
G01 X-16.90799 Y42.50566
G01 X-17.06524 Y42.61823
G01 X-17.23245 Y42.79781
G01 X-17.34221 Y42.98793
G01 X-17.40327 Y43.17141
G01 X-17.43161 Y43.38886
G01 X-17.43299 Y44.21500
G01 X-17.41414 Y44.40745
G01 X-17.34221 Y44.64205
G01 X-17.23245 Y44.83217
G01 X-17.11422 Y44.96549
G01 X-16.84838 Y45.05467
G01 X-16.48813 Y45.11190
G01 X-16.27782 Y45.11190
G01 X-16.08483 Y45.09023
G04 P0 ( dwell for no time -- G64 should not smooth over this point )
G00 Z1.00000 ( retract )

G00 X-18.19171 Y44.96547 ( rapid move to begin. )
G01 F100.00000
G01 Z-0.20000
G04 P0 ( dwell for no time -- G64 should not smooth over this point )
G01 F200.00000
G01 X-18.19171 Y44.96547
G01 X-18.07352 Y44.83217
G01 X-17.97566 Y44.66537
G01 X-17.89184 Y44.40745
G01 X-17.87299 Y44.21500
G01 X-17.87299 Y43.41498
G01 X-17.90271 Y43.17141
G01 X-17.96377 Y42.98793
G01 X-18.05927 Y42.81975
G01 X-18.20189 Y42.65318
G01 X-18.42130 Y42.49377
G01 X-18.62379 Y42.40959
G01 X-18.83936 Y42.36936
G01 X-19.00662 Y42.36936
G01 X-19.27189 Y42.42575
G01 X-19.44799 Y42.50566
G01 X-19.60524 Y42.61823
G01 X-19.77245 Y42.79781
G01 X-19.88221 Y42.98793
G01 X-19.94327 Y43.17141
G01 X-19.97161 Y43.38886
G01 X-19.97299 Y44.21500
G01 X-19.95414 Y44.40745
G01 X-19.88221 Y44.64205
G01 X-19.77245 Y44.83217
G01 X-19.64408 Y44.97680
G01 X-19.48894 Y45.09625
G04 P0 ( dwell for no time -- G64 should not smooth over this point )
G00 Z1.00000 ( retract )

G00 X-20.96298 Y46.56864 ( rapid move to begin. )
G01 F100.00000
G01 Z-0.20000
G04 P0 ( dwell for no time -- G64 should not smooth over this point )
G01 F200.00000
G01 X-20.96298 Y46.56864
G01 X-21.09434 Y46.87120
G01 X-21.21527 Y47.03267
G01 X-29.07660 Y54.88739
G01 X-21.21527 Y47.03267
G04 P0 ( dwell for no time -- G64 should not smooth over this point )
G00 Z1.00000 ( retract )

G00 X-27.17432 Y40.86812 ( rapid move to begin. )
G01 F100.00000
G01 Z-0.20000
G04 P0 ( dwell for no time -- G64 should not smooth over this point )
G01 F200.00000
G01 X-27.17432 Y40.86812
G01 X-26.44183 Y40.13563
G01 X-26.30810 Y39.95014
G04 P0 ( dwell for no time -- G64 should not smooth over this point )
G00 Z1.00000 ( retract )

G00 X-24.81522 Y39.35458 ( rapid move to begin. )
G01 F100.00000
G01 Z-0.20000
G04 P0 ( dwell for no time -- G64 should not smooth over this point )
G01 F200.00000
G01 X-24.81522 Y39.35458
G01 X-24.81986 Y32.45526
G01 X-24.81522 Y39.35458
G01 X-24.82908 Y39.49395
G01 X-24.91781 Y39.60226
G01 X-26.88420 Y41.56865
G01 X-26.99250 Y41.65737
G01 X-27.13190 Y41.67121
G01 X-28.21831 Y41.67388
G01 X-28.38516 Y41.70782
G01 X-28.66608 Y41.82097
G01 X-29.82039 Y41.82100
G01 X-31.39999 Y43.40060
G01 X-30.58798 Y43.39999
G01 X-30.39552 Y43.41884
G01 X-30.29186 Y43.44678
G01 X-28.66608 Y41.82097
G04 P0 ( dwell for no time -- G64 should not smooth over this point )
G00 Z1.00000 ( retract )

G00 X-31.91170 Y45.18985 ( rapid move to begin. )
G01 F100.00000
G01 Z-0.20000
G04 P0 ( dwell for no time -- G64 should not smooth over this point )
G01 F200.00000
G01 X-31.91170 Y45.18985
G01 X-31.68185 Y45.34764
G01 X-31.39996 Y45.49935
G01 X-31.60814 Y45.39826
G01 X-31.91170 Y45.18985
G01 X-32.06455 Y45.04489
G01 X-32.25063 Y44.80733
G01 X-32.28490 Y44.54241
G01 X-32.28490 Y44.34482
G01 X-32.25063 Y44.09262
G01 X-32.12178 Y43.92811
G01 X-31.92861 Y43.72455
G01 X-31.73740 Y43.58218
G01 X-31.39999 Y43.40060
G01 X-31.75480 Y43.59156
G01 X-31.92861 Y43.72455
G01 X-32.06455 Y43.85506
G01 X-32.25063 Y44.09262
G01 X-32.28490 Y44.34482
G01 X-32.28604 Y44.53359
G01 X-32.25063 Y44.80733
G04 P0 ( dwell for no time -- G64 should not smooth over this point )
G00 Z1.00000 ( retract )

G00 X-33.19986 Y40.12047 ( rapid move to begin. )
G01 F100.00000
G01 Z-0.20000
G04 P0 ( dwell for no time -- G64 should not smooth over this point )
G01 F200.00000
G01 X-33.19986 Y40.12047
G01 X-33.47855 Y40.23909
G01 X-33.61251 Y40.32776
G01 X-33.47855 Y40.23909
G04 P0 ( dwell for no time -- G64 should not smooth over this point )
G00 Z1.00000 ( retract )

G00 X-33.97669 Y39.59014 ( rapid move to begin. )
G01 F100.00000
G01 Z-0.20000
G04 P0 ( dwell for no time -- G64 should not smooth over this point )
G01 F200.00000
G01 X-33.97669 Y39.59014
G01 X-34.19516 Y39.90431
G01 X-33.97669 Y39.59014
G01 X-33.87634 Y39.38273
G01 X-33.89384 Y39.17752
G01 X-33.92178 Y39.07389
G01 X-33.46737 Y38.61948
G01 X-28.67124 Y38.61948
G01 X-28.43997 Y38.53957
G01 X-28.21236 Y38.49063
G01 X-27.85633 Y38.47193
G01 X-27.58262 Y38.50731
G01 X-27.33591 Y38.70300
G01 X-27.58262 Y38.50731
G01 X-27.87327 Y38.47282
G01 X-28.11117 Y38.48529
G01 X-28.37551 Y38.52570
G01 X-28.67124 Y38.61948
G01 X-28.78945 Y38.75281
G01 X-28.85869 Y38.86998
G01 X-33.15650 Y38.86998
G01 X-33.27784 Y38.88555
G01 X-33.41322 Y38.94163
G01 X-33.49186 Y38.99995
G01 X-33.87634 Y39.38273
G04 P0 ( dwell for no time -- G64 should not smooth over this point )
G00 Z1.00000 ( retract )

G00 X-34.33006 Y40.04655 ( rapid move to begin. )
G01 F100.00000
G01 Z-0.20000
G04 P0 ( dwell for no time -- G64 should not smooth over this point )
G01 F200.00000
G01 X-34.33006 Y40.04655
G01 X-34.19516 Y39.90431
G01 X-34.33006 Y40.04655
G01 X-34.56762 Y40.23263
G01 X-34.81982 Y40.26690
G01 X-35.01741 Y40.26690
G01 X-34.81982 Y40.26690
G04 P0 ( dwell for no time -- G64 should not smooth over this point )
G00 Z1.00000 ( retract )

G00 X-35.97359 Y39.38278 ( rapid move to begin. )
G01 F100.00000
G01 Z-0.20000
G04 P0 ( dwell for no time -- G64 should not smooth over this point )
G01 F200.00000
G01 X-35.97359 Y39.38278
G01 X-36.35812 Y38.99995
G01 X-36.43676 Y38.94163
G01 X-36.57214 Y38.88555
G01 X-36.69347 Y38.86998
G01 X-39.72128 Y38.86998
G01 X-39.79052 Y38.75281
G01 X-39.94960 Y38.58049
G01 X-36.42159 Y38.58049
G01 X-35.92820 Y39.07389
G01 X-35.95614 Y39.17752
G01 X-35.97359 Y39.38278
G01 X-35.87326 Y39.59014
G01 X-35.66485 Y39.89370
G01 X-35.51989 Y40.04655
G01 X-35.28233 Y40.23263
G01 X-35.01741 Y40.26690
G01 X-35.28233 Y40.23263
G04 P0 ( dwell for no time -- G64 should not smooth over this point )
G00 Z1.00000 ( retract )

G00 X-35.94953 Y40.82100 ( rapid move to begin. )
G01 F100.00000
G01 Z-0.20000
G04 P0 ( dwell for no time -- G64 should not smooth over this point )
G01 F200.00000
G01 X-35.94953 Y40.82100
G01 X-38.63810 Y40.82097
G01 X-38.75943 Y40.83655
G01 X-38.85161 Y40.86954
G01 X-38.99164 Y40.96743
G01 X-41.31254 Y43.28833
G01 X-41.38734 Y43.38516
G01 X-41.44343 Y43.52054
G01 X-41.45900 Y43.85869
G01 X-43.68142 Y46.08114
G01 X-43.77350 Y46.04570
G01 X-43.97799 Y46.00222
G01 X-44.29100 Y46.00222
G01 X-44.52076 Y46.05246
G01 X-44.73618 Y46.14687
G01 X-44.98939 Y46.33087
G01 X-45.08497 Y46.43699
G01 X-45.08500 Y41.26708
G01 X-45.10054 Y41.14574
G01 X-45.15663 Y41.01036
G01 X-45.23143 Y40.91353
G01 X-51.36048 Y34.78446
G01 X-48.64969 Y34.78449
G01 X-48.47163 Y34.96254
G01 X-48.37483 Y35.03734
G01 X-48.28634 Y35.07920
G01 X-48.14260 Y35.10778
G01 X-46.29589 Y35.10900
G01 X-42.25216 Y39.15103
G01 X-42.17352 Y39.20934
G01 X-42.03814 Y39.26543
G01 X-41.91678 Y39.28100
G01 X-41.68201 Y39.28100
G01 X-41.68861 Y39.39611
G01 X-41.66705 Y39.58829
G01 X-41.58732 Y39.82037
G01 X-41.48945 Y39.98717
G01 X-41.36108 Y40.13180
G01 X-41.16499 Y40.27932
G01 X-40.96446 Y40.36860
G01 X-40.72362 Y40.41562
G01 X-40.50439 Y40.41013
G01 X-40.31551 Y40.36860
G01 X-40.09304 Y40.26507
G01 X-39.93741 Y40.15029
G01 X-39.79052 Y39.98717
G01 X-39.72128 Y39.86997
G01 X-36.90059 Y39.87000
G01 X-35.94953 Y40.82100
G01 X-35.66869 Y40.93413
G01 X-35.50181 Y40.96807
G01 X-34.40699 Y40.97071
G01 X-34.26767 Y40.95687
G01 X-34.21865 Y40.92087
G01 X-33.61251 Y40.32776
G01 X-34.26767 Y40.95687
G01 X-35.50181 Y40.96807
G04 P0 ( dwell for no time -- G64 should not smooth over this point )
G00 Z1.00000 ( retract )

G00 X-37.16233 Y44.39483 ( rapid move to begin. )
G01 F100.00000
G01 Z-0.20000
G04 P0 ( dwell for no time -- G64 should not smooth over this point )
G01 F200.00000
G01 X-37.16233 Y44.39483
G01 X-36.31766 Y45.23948
G01 X-36.02756 Y45.36547
G01 X-35.88443 Y45.46747
G01 X-32.38985 Y48.95586
G01 X-32.24906 Y49.15703
G01 X-32.28183 Y49.40196
G01 X-32.25749 Y49.14478
G01 X-32.38398 Y48.96175
G01 X-35.91293 Y45.43905
G01 X-36.03909 Y45.35808
G01 X-36.31766 Y45.23948
G01 X-37.52215 Y45.23948
G01 X-37.41123 Y45.13224
G01 X-37.29866 Y44.97499
G01 X-37.20937 Y44.77446
G01 X-37.16785 Y44.58559
G01 X-37.16233 Y44.39483
G01 X-37.27925 Y44.16707
G01 X-37.40394 Y43.98477
G01 X-37.27925 Y44.16707
G04 P0 ( dwell for no time -- G64 should not smooth over this point )
G00 Z1.00000 ( retract )

G00 X-37.65799 Y43.71419 ( rapid move to begin. )
G01 F100.00000
G01 Z-0.20000
G04 P0 ( dwell for no time -- G64 should not smooth over this point )
G01 F200.00000
G01 X-37.65799 Y43.71419
G01 X-37.40394 Y43.98477
G01 X-37.65799 Y43.71419
G01 X-37.81361 Y43.59313
G01 X-38.00714 Y43.56120
G01 X-38.20798 Y43.54972
G01 X-39.01851 Y43.55000
G01 X-39.36583 Y43.58607
G01 X-39.53170 Y43.71010
G01 X-39.67000 Y43.83971
G01 X-39.87063 Y44.09262
G01 X-39.90490 Y44.34482
G01 X-39.88481 Y44.73400
G01 X-39.90602 Y44.36636
G01 X-39.87063 Y44.09262
G01 X-39.67683 Y43.84774
G01 X-39.36583 Y43.58607
G01 X-39.09479 Y43.55790
G01 X-38.20798 Y43.54972
G04 P0 ( dwell for no time -- G64 should not smooth over this point )
G00 Z1.00000 ( retract )

G00 X-39.30947 Y42.69948 ( rapid move to begin. )
G01 F100.00000
G01 Z-0.20000
G04 P0 ( dwell for no time -- G64 should not smooth over this point )
G01 F200.00000
G01 X-39.30947 Y42.69948
G01 X-39.58814 Y42.81810
G01 X-39.72192 Y42.90662
G01 X-39.58814 Y42.81810
G04 P0 ( dwell for no time -- G64 should not smooth over this point )
G00 Z1.00000 ( retract )

G00 X-40.62512 Y44.21645 ( rapid move to begin. )
G01 F100.00000
G01 Z-0.20000
G04 P0 ( dwell for no time -- G64 should not smooth over this point )
G01 F200.00000
G01 X-40.62512 Y44.21645
G01 X-40.59489 Y43.79270
G01 X-39.72192 Y42.90662
G01 X-40.50612 Y43.68432
G01 X-40.59489 Y43.79270
G01 X-40.62512 Y44.21645
G01 X-40.75847 Y44.57238
G01 X-40.75849 Y45.20949
G01 X-42.89400 Y47.34499
G01 X-42.88587 Y47.21515
G01 X-42.90771 Y47.00725
G01 X-42.97342 Y46.78733
G01 X-40.75847 Y44.57238
G04 P0 ( dwell for no time -- G64 should not smooth over this point )
G00 Z1.00000 ( retract )

G00 X-39.83838 Y44.94997 ( rapid move to begin. )
G01 F100.00000
G01 Z-0.20000
G04 P0 ( dwell for no time -- G64 should not smooth over this point )
G01 F200.00000
G01 X-39.83838 Y44.94997
G01 X-39.88481 Y44.73400
G01 X-39.83838 Y44.94997
G01 X-39.75844 Y45.18129
G04 P0 ( dwell for no time -- G64 should not smooth over this point )
G00 Z1.00000 ( retract )

G00 X-39.68290 Y45.24926 ( rapid move to begin. )
G01 F100.00000
G01 Z-0.20000
G04 P0 ( dwell for no time -- G64 should not smooth over this point )
G01 F200.00000
G01 X-39.68290 Y45.24926
G01 X-39.75847 Y45.26915
G01 X-39.75844 Y45.18129
G01 X-39.68290 Y45.24926
G01 X-39.41608 Y45.32406
G01 X-39.18778 Y45.36064
G01 X-38.20798 Y45.36973
G01 X-37.83371 Y45.33128
G01 X-37.52215 Y45.23948
G01 X-37.82035 Y45.32734
G01 X-38.11946 Y45.36064
G01 X-39.18778 Y45.36064
G04 P0 ( dwell for no time -- G64 should not smooth over this point )
G00 Z1.00000 ( retract )

G00 X-39.42512 Y46.13920 ( rapid move to begin. )
G01 F100.00000
G01 Z-0.20000
G04 P0 ( dwell for no time -- G64 should not smooth over this point )
G01 F200.00000
G01 X-39.42512 Y46.13920
G01 X-39.16738 Y46.09876
G01 X-39.42512 Y46.13920
G01 X-39.91427 Y46.55873
G01 X-42.99582 Y49.63993
G01 X-43.15727 Y49.76084
G01 X-43.32178 Y49.83505
G01 X-46.13394 Y52.64722
G01 X-46.25462 Y52.69283
G01 X-46.13394 Y52.64722
G04 P0 ( dwell for no time -- G64 should not smooth over this point )
G00 Z1.00000 ( retract )

G00 X-46.95261 Y51.30063 ( rapid move to begin. )
G01 F100.00000
G01 Z-0.20000
G04 P0 ( dwell for no time -- G64 should not smooth over this point )
G01 F200.00000
G01 X-46.95261 Y51.30063
G01 X-46.59884 Y50.99200
G01 X-46.44606 Y50.79583
G01 X-46.41611 Y50.50765
G01 X-46.44606 Y50.79583
G01 X-46.58454 Y50.97861
G01 X-46.86206 Y51.23838
G01 X-46.95261 Y51.30063
G01 X-47.20483 Y51.33490
G01 X-47.56450 Y51.31811
G01 X-47.20483 Y51.33490
G04 P0 ( dwell for no time -- G64 should not smooth over this point )
G00 Z1.00000 ( retract )

G00 X-45.34151 Y55.47162 ( rapid move to begin. )
G01 F100.00000
G01 Z-0.20000
G04 P0 ( dwell for no time -- G64 should not smooth over this point )
G01 F200.00000
G01 X-45.34151 Y55.47162
G01 X-45.19691 Y55.43989
G01 X-45.08711 Y55.36623
G01 X-39.89202 Y50.17734
G01 X-39.75928 Y50.10302
G01 X-39.36205 Y50.36439
G01 X-39.13096 Y50.41760
G01 X-38.20798 Y50.43000
G01 X-38.01869 Y50.40884
G01 X-37.83630 Y50.35453
G01 X-37.55532 Y50.15456
G01 X-37.37031 Y49.87691
G01 X-37.31202 Y49.58324
G01 X-37.37031 Y49.87691
G01 X-37.54270 Y50.14387
G01 X-37.67028 Y50.25212
G01 X-37.82964 Y50.35250
G01 X-38.01064 Y50.40795
G01 X-38.20798 Y50.43000
G01 X-39.09616 Y50.42563
G01 X-39.36667 Y50.36335
G01 X-39.75928 Y50.10302
G01 X-39.90604 Y50.18519
G01 X-45.08711 Y55.36623
G01 X-45.20372 Y55.44447
G01 X-45.34151 Y55.47162
G01 X-51.92090 Y55.47787
G01 X-54.63080 Y58.17375
G01 X-54.72760 Y58.30885
G01 X-54.72857 Y58.43984
G01 X-54.48849 Y58.63412
G01 X-54.29468 Y58.73130
G01 X-54.47500 Y58.64466
G01 X-54.72857 Y58.43984
G01 X-54.73502 Y58.32460
G01 X-54.63080 Y58.17375
G04 P0 ( dwell for no time -- G64 should not smooth over this point )
G00 Z1.00000 ( retract )

G00 X-52.20520 Y56.56948 ( rapid move to begin. )
G01 F100.00000
G01 Z-0.20000
G04 P0 ( dwell for no time -- G64 should not smooth over this point )
G01 F200.00000
G01 X-52.20520 Y56.56948
G01 X-52.11130 Y56.55097
G01 X-45.10705 Y56.53608
G01 X-40.37726 Y51.81722
G01 X-40.27414 Y51.74806
G01 X-40.18163 Y51.72756
G01 X-39.95044 Y51.71714
G01 X-40.20985 Y51.72885
G01 X-40.26720 Y51.74348
G01 X-40.38382 Y51.82166
G01 X-45.10705 Y56.53608
G01 X-52.06743 Y56.54233
G01 X-52.20520 Y56.56948
G01 X-52.32184 Y56.64771
G01 X-54.09623 Y58.42211
G01 X-54.29468 Y58.73130
G01 X-54.16743 Y59.10186
G01 X-54.16108 Y60.15766
G01 X-54.16743 Y59.10186
G04 P0 ( dwell for no time -- G64 should not smooth over this point )
G00 Z1.00000 ( retract )

G00 X-53.52852 Y59.10189 ( rapid move to begin. )
G01 F100.00000
G01 Z-0.20000
G04 P0 ( dwell for no time -- G64 should not smooth over this point )
G01 F200.00000
G01 X-53.52852 Y59.10189
G01 X-53.53487 Y60.15764
G04 P0 ( dwell for no time -- G64 should not smooth over this point )
G00 Z1.00000 ( retract )

G00 X-53.40126 Y60.64865 ( rapid move to begin. )
G01 F100.00000
G01 Z-0.20000
G04 P0 ( dwell for no time -- G64 should not smooth over this point )
G01 F200.00000
G01 X-53.40126 Y60.64865
G01 X-53.59911 Y60.95731
G01 X-54.28010 Y61.63823
G01 X-54.39674 Y61.71646
G01 X-54.53451 Y61.74362
G01 X-56.35544 Y61.74362
G01 X-56.43585 Y61.73109
G01 X-56.49321 Y61.71646
G01 X-56.60984 Y61.63823
G01 X-57.21096 Y61.03198
G01 X-57.32666 Y60.94534
G01 X-57.65797 Y60.99650
G01 X-57.98929 Y60.94534
G01 X-58.10499 Y61.03198
G01 X-61.83211 Y64.76423
G01 X-61.94875 Y64.84247
G01 X-62.08652 Y64.86962
G01 X-68.43090 Y64.87587
G01 X-70.36011 Y66.79623
G01 X-70.47672 Y66.87447
G01 X-70.61322 Y66.90134
G01 X-70.47672 Y66.87447
G04 P0 ( dwell for no time -- G64 should not smooth over this point )
G00 Z1.00000 ( retract )

G00 X-71.58512 Y71.18998 ( rapid move to begin. )
G01 F100.00000
G01 Z-0.20000
G04 P0 ( dwell for no time -- G64 should not smooth over this point )
G01 F200.00000
G01 X-71.58512 Y71.18998
G01 X-71.42998 Y71.35249
G01 X-71.31566 Y71.53961
G01 X-71.23593 Y71.77169
G01 X-71.21299 Y71.98998
G01 X-71.21299 Y72.79000
G01 X-71.23593 Y73.00829
G01 X-71.29440 Y73.19264
G01 X-71.39927 Y73.38522
G01 X-71.58073 Y73.58675
G01 X-71.76130 Y73.71121
G01 X-71.93851 Y73.78860
G01 X-72.12739 Y73.83013
G01 X-72.34662 Y73.83562
G01 X-72.58746 Y73.78860
G01 X-72.76468 Y73.71121
G01 X-72.96556 Y73.57029
G01 X-73.09599 Y73.42749
G01 X-73.23158 Y73.19264
G01 X-73.29414 Y72.98245
G01 X-73.31299 Y72.79000
G01 X-73.31161 Y71.96386
G01 X-73.29005 Y71.77169
G01 X-73.21032 Y71.53961
G01 X-73.09599 Y71.35249
G01 X-72.94524 Y71.19323
G01 X-72.57164 Y71.09109
G04 P0 ( dwell for no time -- G64 should not smooth over this point )
G00 Z1.00000 ( retract )

G00 X-74.12515 Y71.18998 ( rapid move to begin. )
G01 F100.00000
G01 Z-0.20000
G04 P0 ( dwell for no time -- G64 should not smooth over this point )
G01 F200.00000
G01 X-74.12515 Y71.18998
G01 X-73.96998 Y71.35249
G01 X-73.85566 Y71.53961
G01 X-73.77593 Y71.77169
G01 X-73.75299 Y71.98998
G01 X-73.75299 Y72.79000
G01 X-73.77593 Y73.00829
G01 X-73.83440 Y73.19264
G01 X-73.93927 Y73.38522
G01 X-74.12073 Y73.58675
G01 X-74.30130 Y73.71121
G01 X-74.47851 Y73.78860
G01 X-74.66739 Y73.83013
G01 X-74.88662 Y73.83562
G01 X-75.12746 Y73.78860
G01 X-75.30468 Y73.71121
G01 X-75.50556 Y73.57029
G01 X-75.63599 Y73.42749
G01 X-75.77158 Y73.19264
G01 X-75.83414 Y72.98245
G01 X-75.85299 Y72.79000
G01 X-75.85161 Y71.96386
G01 X-75.83005 Y71.77169
G01 X-75.75032 Y71.53961
G01 X-75.63599 Y71.35249
G01 X-75.48524 Y71.19323
G01 X-75.11164 Y71.09109
G04 P0 ( dwell for no time -- G64 should not smooth over this point )
G00 Z1.00000 ( retract )

G00 X-70.80115 Y66.19430 ( rapid move to begin. )
G01 F100.00000
G01 Z-0.20000
G04 P0 ( dwell for no time -- G64 should not smooth over this point )
G01 F200.00000
G01 X-70.80115 Y66.19430
G01 X-130.92671 Y66.19626
G01 X-70.80115 Y66.19430
G01 X-70.76105 Y66.18808
G01 X-70.68370 Y66.12476
G01 X-68.83182 Y64.26769
G01 X-68.71520 Y64.18948
G01 X-68.65785 Y64.17485
G01 X-68.57743 Y64.16233
G01 X-62.23305 Y64.15608
G01 X-58.54286 Y60.46851
G01 X-58.51350 Y60.42155
G01 X-58.55772 Y60.10049
G01 X-58.55769 Y59.27946
G01 X-58.54017 Y59.11317
G01 X-58.49678 Y58.94253
G01 X-58.29943 Y58.64852
G01 X-58.00494 Y58.45233
G01 X-57.65800 Y58.38345
G01 X-57.31104 Y58.45231
G01 X-57.06146 Y58.61119
G01 X-56.97428 Y58.71147
G01 X-57.04611 Y58.62881
G01 X-57.34799 Y58.44355
G01 X-57.59668 Y58.39414
G01 X-57.70288 Y58.39234
G01 X-58.00494 Y58.45233
G04 P0 ( dwell for no time -- G64 should not smooth over this point )
G00 Z1.00000 ( retract )

G00 X-56.81916 Y58.94253 ( rapid move to begin. )
G01 F100.00000
G01 Z-0.20000
G04 P0 ( dwell for no time -- G64 should not smooth over this point )
G01 F200.00000
G01 X-56.81916 Y58.94253
G01 X-56.97428 Y58.71147
G01 X-56.81916 Y58.94253
G01 X-56.76232 Y59.20179
G01 X-56.75823 Y60.10049
G01 X-56.80245 Y60.42155
G01 X-56.71596 Y60.53699
G01 X-56.20890 Y61.03008
G01 X-55.94457 Y61.03193
G01 X-55.81203 Y60.99078
G01 X-55.69227 Y60.92360
G01 X-55.79298 Y60.98009
G01 X-55.96158 Y61.03244
G01 X-56.20890 Y61.03008
G01 X-56.71596 Y60.53699
G04 P0 ( dwell for no time -- G64 should not smooth over this point )
G00 Z1.00000 ( retract )

G00 X-55.84012 Y58.75228 ( rapid move to begin. )
G01 F100.00000
G01 Z-0.20000
G04 P0 ( dwell for no time -- G64 should not smooth over this point )
G01 F200.00000
G01 X-55.84012 Y58.75228
G01 X-55.94302 Y58.92005
G01 X-55.84012 Y58.75228
G01 X-55.62953 Y58.48406
G01 X-55.67411 Y58.39140
G01 X-55.62953 Y58.48406
G04 P0 ( dwell for no time -- G64 should not smooth over this point )
G00 Z1.00000 ( retract )

G00 X-54.16108 Y60.15766 ( rapid move to begin. )
G01 F100.00000
G01 Z-0.20000
G04 P0 ( dwell for no time -- G64 should not smooth over this point )
G01 F200.00000
G01 X-54.16108 Y60.15766
G01 X-54.26387 Y60.53369
G01 X-54.47683 Y60.77981
G01 X-54.70713 Y60.96714
G01 X-55.00761 Y61.01138
G01 X-55.20162 Y61.01278
G01 X-55.42664 Y60.98885
G01 X-55.69227 Y60.92360
G01 X-55.77368 Y60.72655
G01 X-55.95678 Y60.43745
G01 X-56.01363 Y60.17821
G01 X-56.01764 Y59.28685
G01 X-56.00017 Y59.11317
G01 X-55.94302 Y58.92005
G01 X-56.00017 Y59.11317
G01 X-56.01769 Y59.27946
G01 X-56.01769 Y60.10049
G01 X-55.95257 Y60.44408
G01 X-55.77368 Y60.72655
G04 P0 ( dwell for no time -- G64 should not smooth over this point )
G00 Z1.00000 ( retract )

G00 X-59.46623 Y66.16002 ( rapid move to begin. )
G01 F100.00000
G01 Z-0.20000
G04 P0 ( dwell for no time -- G64 should not smooth over this point )
G01 F200.00000
G01 X-59.46623 Y66.16002
G01 X-59.33427 Y66.31475
G01 X-59.25066 Y66.45961
G01 X-59.16684 Y66.71752
G01 X-59.14799 Y66.90998
G01 X-59.14799 Y67.71000
G01 X-59.16684 Y67.90246
G01 X-59.19478 Y68.00611
G01 X-55.31089 Y71.88998
G01 X-52.98384 Y71.88998
G01 X-52.97005 Y71.77169
G01 X-52.89032 Y71.53961
G01 X-52.77599 Y71.35249
G01 X-52.62524 Y71.19323
G01 X-52.25164 Y71.09109
G04 P0 ( dwell for no time -- G64 should not smooth over this point )
G00 Z1.00000 ( retract )

G00 X-51.85933 Y71.06717 ( rapid move to begin. )
G01 F100.00000
G01 Z-0.20000
G04 P0 ( dwell for no time -- G64 should not smooth over this point )
G01 F200.00000
G01 X-51.85933 Y71.06717
G01 X-51.64849 Y71.08957
G01 X-51.37310 Y71.16105
G01 X-51.63429 Y71.09109
G01 X-51.85933 Y71.06717
G01 X-52.05334 Y71.06856
G01 X-52.25164 Y71.09109
G01 X-52.62080 Y71.18998
G01 X-54.67800 Y71.18998
G01 X-54.79933 Y71.17441
G01 X-54.93474 Y71.11832
G01 X-55.03154 Y71.04355
G01 X-57.35955 Y68.71553
G01 X-57.57436 Y68.75562
G01 X-57.74162 Y68.75562
G01 X-57.98246 Y68.70860
G01 X-58.20494 Y68.60507
G01 X-58.36056 Y68.49029
G01 X-58.49099 Y68.34749
G01 X-58.62658 Y68.11264
G01 X-58.68505 Y67.92829
G01 X-58.70661 Y67.73611
G01 X-58.70661 Y66.88386
G01 X-58.68505 Y66.69169
G01 X-58.60532 Y66.45961
G01 X-58.52170 Y66.31475
G01 X-58.38970 Y66.15999
G01 X-58.12328 Y66.07051
G01 X-57.74162 Y66.01216
G01 X-57.38564 Y66.03088
G01 X-57.15815 Y66.07978
G04 P0 ( dwell for no time -- G64 should not smooth over this point )
G00 Z1.00000 ( retract )

G00 X-56.92623 Y66.15999 ( rapid move to begin. )
G01 F100.00000
G01 Z-0.20000
G04 P0 ( dwell for no time -- G64 should not smooth over this point )
G01 F200.00000
G01 X-56.92623 Y66.15999
G01 X-56.79427 Y66.31475
G01 X-56.71066 Y66.45961
G01 X-56.62684 Y66.71752
G01 X-56.60799 Y66.90998
G01 X-56.60799 Y67.71000
G01 X-56.62684 Y67.90246
G01 X-56.65478 Y68.00611
G01 X-54.47088 Y70.18998
G01 X-53.34505 Y70.18998
G01 X-53.03754 Y70.31131
G01 X-52.84780 Y70.33974
G01 X-50.64415 Y70.34263
G01 X-50.47742 Y70.37657
G01 X-50.19586 Y70.48998
G01 X-50.48959 Y70.37408
G01 X-50.70300 Y70.33999
G01 X-52.84028 Y70.33974
G01 X-53.01036 Y70.31538
G01 X-53.34505 Y70.18998
G01 X-54.81955 Y68.71553
G01 X-55.03436 Y68.75562
G01 X-55.20162 Y68.75562
G01 X-55.44246 Y68.70860
G01 X-55.66494 Y68.60507
G01 X-55.82056 Y68.49029
G01 X-55.95099 Y68.34749
G01 X-56.08658 Y68.11264
G01 X-56.14914 Y67.90246
G01 X-56.16799 Y67.71000
G01 X-56.16799 Y66.90998
G01 X-56.14505 Y66.69169
G01 X-56.06532 Y66.45961
G01 X-55.95099 Y66.27249
G01 X-55.84970 Y66.15999
G01 X-55.61780 Y66.07978
G01 X-55.39031 Y66.03088
G01 X-55.01287 Y66.01330
G01 X-54.65267 Y66.07051
G01 X-54.38625 Y66.15999
G01 X-54.25427 Y66.31475
G01 X-54.17066 Y66.45961
G01 X-54.08684 Y66.71752
G01 X-54.06799 Y66.90998
G01 X-54.06799 Y67.71000
G01 X-54.08684 Y67.90246
G01 X-54.11478 Y68.00611
G01 X-52.63088 Y69.48998
G01 X-51.50505 Y69.48998
G01 X-51.19754 Y69.61132
G01 X-50.99797 Y69.63999
G01 X-36.16300 Y69.63999
G01 X-35.96340 Y69.66864
G01 X-35.65586 Y69.78998
G01 X-35.95060 Y69.67367
G01 X-36.13071 Y69.64462
G01 X-50.99797 Y69.63999
G01 X-51.17094 Y69.61513
G01 X-51.50505 Y69.48998
G01 X-52.27955 Y68.71553
G01 X-52.49436 Y68.75562
G01 X-52.66162 Y68.75562
G01 X-52.90246 Y68.70860
G01 X-53.12494 Y68.60507
G01 X-53.28056 Y68.49029
G01 X-53.41099 Y68.34749
G01 X-53.54658 Y68.11264
G01 X-53.60914 Y67.90246
G01 X-53.62799 Y67.71000
G01 X-53.62799 Y66.90998
G01 X-53.60505 Y66.69169
G01 X-53.52532 Y66.45961
G01 X-53.41099 Y66.27249
G01 X-53.30970 Y66.15996
G04 P0 ( dwell for no time -- G64 should not smooth over this point )
G00 Z1.00000 ( retract )

G00 X-52.85031 Y66.03088 ( rapid move to begin. )
G01 F100.00000
G01 Z-0.20000
G04 P0 ( dwell for no time -- G64 should not smooth over this point )
G01 F200.00000
G01 X-52.85031 Y66.03088
G01 X-52.47287 Y66.01330
G01 X-52.11267 Y66.07051
G01 X-51.84628 Y66.15996
G01 X-51.71427 Y66.31475
G01 X-51.63066 Y66.45961
G01 X-51.54681 Y66.71752
G01 X-51.52799 Y66.90998
G01 X-51.52799 Y67.71000
G01 X-51.54681 Y67.90246
G01 X-51.57478 Y68.00611
G01 X-50.79088 Y68.78998
G01 X-28.32971 Y68.79600
G01 X-28.18948 Y68.83855
G01 X-28.04942 Y68.93644
G01 X-25.09589 Y71.88998
G01 X-25.04384 Y71.88998
G01 X-25.02327 Y71.74641
G01 X-24.97158 Y71.58733
G01 X-24.86670 Y71.39475
G01 X-24.68524 Y71.19323
G01 X-24.50468 Y71.06877
G01 X-24.32746 Y70.99137
G01 X-24.13859 Y70.94985
G01 X-23.91936 Y70.94436
G01 X-23.70193 Y70.98518
G04 P0 ( dwell for no time -- G64 should not smooth over this point )
G00 Z1.00000 ( retract )

G00 X-23.51870 Y71.10783 ( rapid move to begin. )
G01 F100.00000
G01 Z-0.20000
G04 P0 ( dwell for no time -- G64 should not smooth over this point )
G01 F200.00000
G01 X-23.51870 Y71.10783
G01 X-23.32843 Y71.27006
G01 X-23.10196 Y71.52135
G01 X-23.34550 Y71.25548
G01 X-23.51870 Y71.10783
G01 X-23.70193 Y70.98518
G01 X-30.65709 Y64.02997
G01 X-33.49798 Y64.03000
G01 X-33.66623 Y64.00020
G01 X-33.75472 Y63.95834
G01 X-33.85155 Y63.88354
G01 X-35.42622 Y62.30887
G01 X-35.89584 Y62.77679
G01 X-36.01235 Y62.86619
G01 X-36.14407 Y62.93117
G01 X-36.28593 Y62.96917
G01 X-36.40798 Y62.97999
G01 X-37.47828 Y62.97999
G01 X-37.61275 Y63.09370
G01 X-37.80533 Y63.19858
G01 X-37.98969 Y63.25705
G01 X-38.20798 Y63.27999
G01 X-39.00800 Y63.27999
G01 X-39.22629 Y63.25705
G01 X-39.45837 Y63.17732
G01 X-39.60322 Y63.09370
G01 X-39.73769 Y62.97999
G01 X-42.32128 Y62.97999
G01 X-42.50604 Y63.12507
G01 X-42.72852 Y63.22860
G01 X-42.91739 Y63.27013
G01 X-43.13662 Y63.27562
G01 X-43.37746 Y63.22860
G01 X-43.59994 Y63.12507
G01 X-43.77408 Y62.99180
G01 X-43.90245 Y62.84717
G01 X-43.97169 Y62.73000
G01 X-46.50796 Y62.73000
G01 X-46.29158 Y62.96769
G01 X-46.16577 Y63.19650
G01 X-46.09440 Y63.42060
G01 X-46.06846 Y63.65436
G01 X-46.09031 Y63.91453
G01 X-46.17517 Y64.18890
G01 X-46.32228 Y64.43556
G01 X-46.48068 Y64.60942
G01 X-46.67014 Y64.74877
G01 X-46.90638 Y64.85994
G01 X-47.18642 Y64.92364
G01 X-47.42162 Y64.92502
G01 X-47.67809 Y64.87607
G01 X-47.77014 Y64.84066
G01 X-49.20364 Y66.27414
G01 X-49.06940 Y66.50733
G01 X-49.00684 Y66.71752
G01 X-48.98799 Y66.90998
G01 X-48.98799 Y67.71000
G01 X-49.01093 Y67.92829
G01 X-49.06940 Y68.11264
G01 X-49.20498 Y68.34749
G01 X-49.33541 Y68.49029
G01 X-49.53630 Y68.63121
G01 X-49.71351 Y68.70860
G01 X-49.95436 Y68.75562
G01 X-50.17359 Y68.75013
G01 X-50.36246 Y68.70860
G01 X-50.53968 Y68.63121
G01 X-50.72024 Y68.50675
G01 X-50.90170 Y68.30522
G01 X-51.00658 Y68.11264
G01 X-51.06914 Y67.90246
G01 X-51.08796 Y67.71000
G01 X-51.08796 Y66.90998
G01 X-51.06914 Y66.71752
G01 X-51.04120 Y66.61389
G01 X-51.49507 Y66.15996
G01 X-51.84628 Y66.15996
G01 X-52.09738 Y66.07561
G01 X-52.47963 Y66.01361
G01 X-52.85031 Y66.03088
G01 X-53.07780 Y66.07978
G01 X-53.30970 Y66.15996
G01 X-54.38625 Y66.15999
G01 X-54.67792 Y66.06647
G01 X-54.91071 Y66.02951
G01 X-55.10812 Y66.01772
G01 X-55.29504 Y66.02644
G01 X-55.55343 Y66.06593
G01 X-55.84970 Y66.15999
G01 X-56.92623 Y66.15999
G01 X-57.15815 Y66.07978
G01 X-57.36933 Y66.03436
G01 X-57.74162 Y66.01216
G01 X-58.13735 Y66.07523
G01 X-58.38970 Y66.15999
G01 X-59.46623 Y66.16002
G01 X-59.69815 Y66.07978
G01 X-59.92564 Y66.03088
G01 X-60.11436 Y66.01216
G01 X-60.38972 Y66.02240
G01 X-60.54382 Y66.07172
G01 X-60.82259 Y66.25732
G01 X-60.87087 Y66.31422
G01 X-61.02599 Y66.54267
G01 X-61.24799 Y66.98783
G01 X-61.40892 Y67.11650
G01 X-61.58349 Y67.16217
G01 X-61.68794 Y67.15061
G01 X-61.68799 Y67.66636
G01 X-61.63277 Y67.77675
G01 X-61.60298 Y67.94497
G01 X-61.60298 Y71.06803
G01 X-61.40041 Y71.20969
G01 X-61.23927 Y71.39475
G01 X-61.13440 Y71.58733
G01 X-61.08271 Y71.74641
G01 X-61.05299 Y71.98998
G01 X-61.05299 Y72.79000
G01 X-61.07593 Y73.00829
G01 X-61.13440 Y73.19264
G01 X-61.23927 Y73.38522
G01 X-61.42073 Y73.58675
G01 X-61.60130 Y73.71121
G01 X-61.77851 Y73.78860
G01 X-61.96739 Y73.83013
G01 X-62.18662 Y73.83562
G01 X-62.42746 Y73.78860
G01 X-62.60468 Y73.71121
G01 X-62.80556 Y73.57029
G01 X-62.93599 Y73.42749
G01 X-63.07158 Y73.19264
G01 X-63.13414 Y72.98245
G01 X-63.15299 Y72.79000
G01 X-63.15161 Y71.96386
G01 X-63.12327 Y71.74641
G01 X-63.07158 Y71.58733
G01 X-62.96670 Y71.39475
G01 X-62.80556 Y71.20969
G01 X-62.60300 Y71.06803
G01 X-62.60300 Y68.75021
G01 X-62.82162 Y68.75562
G01 X-63.06246 Y68.70860
G01 X-63.23968 Y68.63121
G01 X-63.44056 Y68.49029
G01 X-63.50795 Y68.41752
G01 X-63.51400 Y69.16125
G01 X-63.55654 Y69.30151
G01 X-63.63795 Y69.42336
G01 X-65.30642 Y71.09353
G01 X-65.44648 Y71.19142
G01 X-65.53865 Y71.22442
G01 X-65.65999 Y71.23999
G01 X-66.45120 Y71.23999
G01 X-66.31927 Y71.39475
G01 X-66.23566 Y71.53961
G01 X-66.15593 Y71.77169
G01 X-66.14213 Y71.88998
G01 X-65.68384 Y71.88998
G01 X-65.67005 Y71.77169
G01 X-65.59032 Y71.53961
G01 X-65.50670 Y71.39475
G01 X-65.36408 Y71.22818
G01 X-65.14468 Y71.06877
G01 X-64.96746 Y70.99137
G01 X-64.77859 Y70.94985
G01 X-64.50739 Y70.94985
G01 X-64.31851 Y70.99137
G01 X-64.14130 Y71.06877
G01 X-63.92189 Y71.22818
G01 X-63.77927 Y71.39475
G01 X-63.67440 Y71.58733
G01 X-63.61593 Y71.77169
G01 X-63.59299 Y71.98998
G01 X-63.59299 Y72.79000
G01 X-63.61593 Y73.00829
G01 X-63.69566 Y73.24037
G01 X-63.80998 Y73.42749
G01 X-63.94041 Y73.57029
G01 X-64.14298 Y73.71194
G01 X-64.14298 Y80.74000
G01 X-51.47970 Y80.74599
G01 X-51.33947 Y80.78854
G01 X-51.19944 Y80.88643
G01 X-49.04943 Y83.03644
G01 X-48.97463 Y83.13323
G01 X-48.93277 Y83.22175
G01 X-48.90900 Y83.31670
G01 X-48.90298 Y83.48289
G01 X-46.30654 Y80.88643
G01 X-46.20974 Y80.81165
G01 X-46.07433 Y80.75557
G01 X-45.95299 Y80.74000
G01 X-39.74300 Y80.73997
G01 X-39.74300 Y73.71194
G01 X-39.94556 Y73.57029
G01 X-40.09245 Y73.40717
G01 X-40.19032 Y73.24037
G01 X-40.26327 Y73.03356
G01 X-40.29299 Y72.79000
G01 X-40.29299 Y71.98998
G01 X-40.27005 Y71.77169
G01 X-40.21158 Y71.58733
G01 X-40.09245 Y71.37281
G01 X-39.96408 Y71.22818
G01 X-39.74468 Y71.06877
G01 X-39.56746 Y70.99137
G01 X-39.32662 Y70.94436
G01 X-39.10739 Y70.94985
G01 X-38.91851 Y70.99137
G01 X-38.74130 Y71.06877
G01 X-38.54041 Y71.20969
G01 X-38.39352 Y71.37281
G01 X-38.29566 Y71.53961
G01 X-38.21593 Y71.77169
G01 X-38.20213 Y71.88998
G01 X-37.74384 Y71.88998
G01 X-37.73005 Y71.77169
G01 X-37.67158 Y71.58733
G01 X-37.55245 Y71.37281
G01 X-37.40556 Y71.20969
G01 X-37.20468 Y71.06877
G01 X-37.02746 Y70.99137
G01 X-36.78662 Y70.94436
G01 X-36.56739 Y70.94985
G01 X-36.37852 Y70.99137
G01 X-36.15604 Y71.09490
G01 X-36.00041 Y71.20969
G01 X-35.85352 Y71.37281
G01 X-35.73440 Y71.58733
G01 X-35.67593 Y71.77169
G01 X-35.65436 Y71.96386
G01 X-35.65299 Y72.79000
G01 X-35.68271 Y73.03356
G01 X-35.75566 Y73.24037
G01 X-35.85352 Y73.40717
G01 X-36.00041 Y73.57029
G01 X-36.20130 Y73.71121
G01 X-36.37852 Y73.78860
G01 X-36.61936 Y73.83562
G01 X-36.83859 Y73.83013
G01 X-37.05189 Y73.77923
G01 X-37.20468 Y73.71121
G01 X-37.38524 Y73.58675
G01 X-37.55245 Y73.40717
G01 X-37.67158 Y73.19264
G01 X-37.73005 Y73.00829
G01 X-37.74387 Y72.88997
G01 X-38.20211 Y72.88997
G01 X-38.21593 Y73.00829
G01 X-38.27440 Y73.19264
G01 X-38.39352 Y73.40717
G01 X-38.54041 Y73.57029
G01 X-38.74298 Y73.71194
G01 X-38.74298 Y80.73997
G01 X-24.11298 Y80.74000
G01 X-24.10699 Y74.33970
G01 X-24.06444 Y74.19947
G01 X-23.96655 Y74.05944
G01 X-23.70181 Y73.79470
G01 X-23.51870 Y73.67209
G01 X-23.35693 Y73.53691
G01 X-23.10127 Y73.25601
G01 X-23.05596 Y73.00973
G01 X-23.04341 Y72.80676
G01 X-23.04298 Y71.98998
G01 X-23.05596 Y71.77021
G01 X-23.10196 Y71.52135
G04 P0 ( dwell for no time -- G64 should not smooth over this point )
G00 Z1.00000 ( retract )

G00 X-22.33308 Y71.40580 ( rapid move to begin. )
G01 F100.00000
G01 Z-0.20000
G04 P0 ( dwell for no time -- G64 should not smooth over this point )
G01 F200.00000
G01 X-22.33308 Y71.40580
G01 X-22.23752 Y71.28754
G01 X-22.34011 Y71.18495
G01 X-22.33308 Y71.40580
G01 X-22.41019 Y71.77014
G01 X-22.42327 Y71.98995
G01 X-22.41177 Y72.99190
G01 X-22.33460 Y73.37153
G01 X-22.16556 Y73.57029
G01 X-21.96468 Y73.71121
G01 X-21.78746 Y73.78860
G01 X-21.59859 Y73.83013
G01 X-21.37936 Y73.83562
G01 X-21.11408 Y73.77923
G01 X-20.91604 Y73.68507
G01 X-20.76041 Y73.57029
G01 X-20.59927 Y73.38522
G01 X-20.49440 Y73.19264
G01 X-20.44271 Y73.03356
G01 X-20.41299 Y72.79000
G01 X-20.41299 Y71.98998
G01 X-20.43184 Y71.79752
G01 X-20.49440 Y71.58733
G01 X-20.61352 Y71.37281
G01 X-20.74189 Y71.22818
G01 X-20.91604 Y71.09490
G01 X-21.10740 Y71.00374
G01 X-29.53799 Y62.57287
G01 X-29.53796 Y61.44712
G01 X-19.94154 Y71.04355
G01 X-19.80151 Y71.14144
G01 X-19.70933 Y71.17441
G01 X-19.59976 Y71.18942
G01 X-19.23164 Y71.09109
G01 X-19.01876 Y71.06844
G01 X-18.82719 Y71.06844
G01 X-19.03334 Y71.06856
G01 X-19.23164 Y71.09109
G01 X-19.60524 Y71.19323
G01 X-19.77245 Y71.37281
G01 X-19.87032 Y71.53961
G01 X-19.94327 Y71.74641
G01 X-19.97161 Y71.96386
G01 X-19.97299 Y72.79000
G01 X-19.95414 Y72.98245
G01 X-19.89158 Y73.19264
G01 X-19.77245 Y73.40717
G01 X-19.65419 Y73.54049
G01 X-19.47631 Y73.60194
G01 X-19.13044 Y73.67064
G01 X-18.83204 Y73.68690
G01 X-18.44337 Y73.62490
G01 X-18.19171 Y73.54047
G01 X-18.45757 Y73.62967
G01 X-18.83936 Y73.68802
G01 X-19.22112 Y73.66523
G01 X-19.42297 Y73.62038
G01 X-19.65419 Y73.54049
G01 X-20.17179 Y73.54049
G01 X-20.34004 Y73.57029
G01 X-20.42853 Y73.61215
G01 X-20.52533 Y73.68692
G01 X-23.11298 Y76.27457
G01 X-23.11298 Y74.62009
G01 X-22.44903 Y73.94649
G01 X-22.37811 Y73.80729
G01 X-22.33780 Y73.59485
G01 X-22.33460 Y73.37153
G01 X-22.38426 Y73.17722
G01 X-22.41443 Y72.97407
G01 X-22.42327 Y71.98995
G04 P0 ( dwell for no time -- G64 should not smooth over this point )
G00 Z1.00000 ( retract )

G00 X-23.51870 Y73.67209 ( rapid move to begin. )
G01 F100.00000
G01 Z-0.20000
G04 P0 ( dwell for no time -- G64 should not smooth over this point )
G01 F200.00000
G01 X-23.51870 Y73.67209
G01 X-23.70221 Y73.79495
G01 X-23.86739 Y73.83013
G01 X-24.08662 Y73.83562
G01 X-24.35189 Y73.77923
G01 X-24.54994 Y73.68507
G01 X-24.70556 Y73.57029
G01 X-24.85245 Y73.40717
G01 X-24.95032 Y73.24037
G01 X-25.02327 Y73.03356
G01 X-25.04387 Y72.88997
G01 X-25.30297 Y72.89000
G01 X-25.42433 Y72.87443
G01 X-25.55974 Y72.81835
G01 X-25.63835 Y72.76003
G01 X-28.61010 Y69.78998
G01 X-35.65586 Y69.78998
G01 X-34.46142 Y70.98444
G01 X-34.24662 Y70.94436
G01 X-34.07936 Y70.94436
G01 X-33.86379 Y70.98459
G01 X-33.66130 Y71.06877
G01 X-33.48073 Y71.19323
G01 X-33.31352 Y71.37281
G01 X-33.21566 Y71.53961
G01 X-33.13593 Y71.77169
G01 X-33.11299 Y71.98998
G01 X-33.11299 Y72.79000
G01 X-33.13184 Y72.98245
G01 X-33.19440 Y73.19264
G01 X-33.29927 Y73.38522
G01 X-33.46041 Y73.57029
G01 X-33.66130 Y73.71121
G01 X-33.86379 Y73.79538
G01 X-34.07936 Y73.83562
G01 X-34.24662 Y73.83562
G01 X-34.48746 Y73.78860
G01 X-34.66468 Y73.71121
G01 X-34.86556 Y73.57029
G01 X-35.02670 Y73.38522
G01 X-35.13158 Y73.19264
G01 X-35.18327 Y73.03356
G01 X-35.21161 Y72.81611
G01 X-35.21299 Y71.98998
G01 X-35.19414 Y71.79752
G01 X-35.16620 Y71.69386
G01 X-36.37008 Y70.48998
G01 X-50.19586 Y70.48998
G01 X-49.70142 Y70.98444
G01 X-49.48662 Y70.94436
G01 X-49.31936 Y70.94436
G01 X-49.10379 Y70.98459
G01 X-48.90130 Y71.06877
G01 X-48.72073 Y71.19323
G01 X-48.55352 Y71.37281
G01 X-48.45566 Y71.53961
G01 X-48.37593 Y71.77169
G01 X-48.35299 Y71.98998
G01 X-48.35299 Y72.79000
G01 X-48.37184 Y72.98245
G01 X-48.43440 Y73.19264
G01 X-48.53927 Y73.38522
G01 X-48.72073 Y73.58675
G01 X-48.90130 Y73.71121
G01 X-49.05408 Y73.77923
G01 X-49.31936 Y73.83562
G01 X-49.53859 Y73.83013
G01 X-49.72746 Y73.78860
G01 X-49.94994 Y73.68507
G01 X-50.12408 Y73.55180
G01 X-50.25245 Y73.40717
G01 X-50.35032 Y73.24037
G01 X-50.43005 Y73.00829
G01 X-50.45299 Y72.79000
G01 X-50.45299 Y71.98998
G01 X-50.43414 Y71.79752
G01 X-50.40620 Y71.69386
G01 X-50.91008 Y71.18998
G01 X-51.26515 Y71.18998
G01 X-51.37310 Y71.16105
G01 X-51.24041 Y71.20969
G01 X-51.07925 Y71.39475
G01 X-50.97440 Y71.58733
G01 X-50.91590 Y71.77169
G01 X-50.89299 Y71.98998
G01 X-50.89436 Y72.81611
G01 X-50.91590 Y73.00829
G01 X-50.99563 Y73.24037
G01 X-51.07925 Y73.38522
G01 X-51.22189 Y73.55180
G01 X-51.39604 Y73.68507
G01 X-51.61851 Y73.78860
G01 X-51.80739 Y73.83013
G01 X-52.02662 Y73.83562
G01 X-52.26746 Y73.78860
G01 X-52.44465 Y73.71121
G01 X-52.62524 Y73.58675
G01 X-52.77599 Y73.42749
G01 X-52.89032 Y73.24037
G01 X-52.97005 Y73.00829
G01 X-52.98387 Y72.88997
G01 X-55.51800 Y72.89000
G01 X-55.63933 Y72.87443
G01 X-55.77472 Y72.81835
G01 X-55.87154 Y72.74354
G01 X-59.89955 Y68.71553
G01 X-60.11436 Y68.75562
G01 X-60.28162 Y68.75562
G01 X-60.52246 Y68.70860
G01 X-60.74494 Y68.60507
G01 X-60.90056 Y68.49029
G01 X-61.03099 Y68.34749
G01 X-61.16658 Y68.11264
G01 X-61.22505 Y67.92829
G01 X-61.24799 Y67.71000
G01 X-61.24799 Y66.98783
G01 X-61.03135 Y66.55128
G01 X-60.92012 Y66.37228
G01 X-60.81187 Y66.24470
G01 X-60.54382 Y66.07172
G04 P0 ( dwell for no time -- G64 should not smooth over this point )
G00 Z1.00000 ( retract )

G00 X-63.67188 Y68.01264 ( rapid move to begin. )
G01 F100.00000
G01 Z-0.20000
G04 P0 ( dwell for no time -- G64 should not smooth over this point )
G01 F200.00000
G01 X-63.67188 Y68.01264
G01 X-63.69754 Y67.72676
G01 X-63.69799 Y67.40413
G04 P0 ( dwell for no time -- G64 should not smooth over this point )
G00 Z1.00000 ( retract )

G00 X-64.43917 Y66.56253 ( rapid move to begin. )
G01 F100.00000
G01 Z-0.20000
G04 P0 ( dwell for no time -- G64 should not smooth over this point )
G01 F200.00000
G01 X-64.43917 Y66.56253
G01 X-64.38232 Y66.82179
G01 X-64.37429 Y67.21932
G01 X-64.31796 Y67.40413
G01 X-64.31841 Y67.72676
G01 X-64.34407 Y68.01261
G01 X-64.50797 Y68.41747
G01 X-64.50800 Y68.88089
G01 X-65.86710 Y70.23999
G01 X-67.10086 Y70.23997
G01 X-65.57642 Y68.71553
G01 X-65.36162 Y68.75562
G01 X-65.19436 Y68.75562
G01 X-64.97879 Y68.71538
G01 X-64.77630 Y68.63121
G01 X-64.59573 Y68.50675
G01 X-64.50797 Y68.41747
G04 P0 ( dwell for no time -- G64 should not smooth over this point )
G00 Z1.00000 ( retract )

G00 X-66.17363 Y66.82179 ( rapid move to begin. )
G01 F100.00000
G01 Z-0.20000
G04 P0 ( dwell for no time -- G64 should not smooth over this point )
G01 F200.00000
G01 X-66.17363 Y66.82179
G01 X-66.19004 Y67.26296
G01 X-66.17363 Y66.82179
G01 X-66.11678 Y66.56253
G01 X-65.91943 Y66.26855
G01 X-65.71930 Y66.12435
G01 X-65.56748 Y66.05407
G01 X-65.27797 Y66.00345
G01 X-65.00939 Y66.04861
G01 X-64.83665 Y66.12435
G01 X-64.63652 Y66.26855
G01 X-64.43917 Y66.56253
G01 X-64.60076 Y66.32179
G01 X-64.66906 Y66.24508
G01 X-64.87716 Y66.10657
G01 X-64.97546 Y66.06347
G01 X-65.27797 Y66.00345
G01 X-65.55339 Y66.05158
G01 X-65.72987 Y66.13197
G01 X-65.91943 Y66.26855
G04 P0 ( dwell for no time -- G64 should not smooth over this point )
G00 Z1.00000 ( retract )

G00 X-67.04292 Y66.00655 ( rapid move to begin. )
G01 F100.00000
G01 Z-0.20000
G04 P0 ( dwell for no time -- G64 should not smooth over this point )
G01 F200.00000
G01 X-67.04292 Y66.00655
G01 X-68.63624 Y66.01653
G01 X-67.04292 Y66.00655
G01 X-66.97932 Y66.01668
G01 X-66.94658 Y66.03855
G01 X-66.92471 Y66.07132
G01 X-66.91455 Y66.13492
G01 X-66.91079 Y67.22034
G01 X-66.86451 Y67.38470
G01 X-66.76791 Y67.54485
G01 X-66.86451 Y67.38470
G01 X-66.90655 Y67.23537
G01 X-66.91455 Y66.13492
G04 P0 ( dwell for no time -- G64 should not smooth over this point )
G00 Z1.00000 ( retract )

G00 X-66.76796 Y68.49285 ( rapid move to begin. )
G01 F100.00000
G01 Z-0.20000
G04 P0 ( dwell for no time -- G64 should not smooth over this point )
G01 F200.00000
G01 X-66.76796 Y68.49285
G01 X-66.28120 Y68.00611
G01 X-66.30505 Y67.92829
G01 X-66.32661 Y67.73611
G01 X-66.32799 Y67.54670
G01 X-66.23218 Y67.38605
G01 X-66.19004 Y67.26296
G01 X-66.24117 Y67.41086
G01 X-66.32799 Y67.54670
G01 X-66.68564 Y67.55879
G01 X-66.76791 Y67.54485
G01 X-66.76796 Y68.49285
G01 X-66.87134 Y68.65661
G01 X-67.03507 Y68.75998
G01 X-67.81510 Y69.53999
G01 X-68.38739 Y69.54119
G01 X-68.57639 Y69.58853
G01 X-68.71642 Y69.68640
G01 X-69.22005 Y70.18998
G01 X-76.04298 Y70.18998
G01 X-76.21123 Y70.21977
G01 X-76.29972 Y70.26163
G01 X-76.39655 Y70.33644
G01 X-77.04455 Y70.98444
G01 X-77.25936 Y70.94436
G01 X-77.42662 Y70.94436
G01 X-77.66746 Y70.99137
G01 X-77.84468 Y71.06877
G01 X-78.02524 Y71.19323
G01 X-78.20670 Y71.39475
G01 X-78.31158 Y71.58733
G01 X-78.36327 Y71.74641
G01 X-78.39161 Y71.96386
G01 X-78.39161 Y72.81611
G01 X-78.37005 Y73.00829
G01 X-78.31158 Y73.19264
G01 X-78.20670 Y73.38522
G01 X-78.04556 Y73.57029
G01 X-77.84468 Y73.71121
G01 X-77.64219 Y73.79538
G01 X-77.42662 Y73.83562
G01 X-77.25936 Y73.83562
G01 X-77.04379 Y73.79538
G01 X-76.84130 Y73.71121
G01 X-76.66073 Y73.58675
G01 X-76.47927 Y73.38522
G01 X-76.37440 Y73.19264
G01 X-76.31593 Y73.00829
G01 X-76.29299 Y72.79000
G01 X-76.29299 Y71.98998
G01 X-76.31184 Y71.79752
G01 X-76.33978 Y71.69386
G01 X-75.83589 Y71.18998
G01 X-75.48080 Y71.18998
G01 X-75.11164 Y71.09109
G01 X-74.88662 Y71.06717
G01 X-74.69261 Y71.06856
G01 X-74.49431 Y71.09109
G01 X-74.12515 Y71.18998
G01 X-72.94080 Y71.18998
G01 X-72.57164 Y71.09109
G01 X-72.34662 Y71.06717
G01 X-72.15261 Y71.06856
G01 X-71.95431 Y71.09109
G01 X-71.58512 Y71.18998
G01 X-70.40082 Y71.18998
G01 X-70.03164 Y71.09109
G01 X-69.80659 Y71.06717
G01 X-69.42963 Y71.08934
G01 X-69.04512 Y71.18998
G01 X-68.90314 Y71.33788
G01 X-68.84243 Y71.44499
G01 X-68.77596 Y71.77021
G01 X-68.76298 Y71.98998
G01 X-68.77187 Y72.94395
G01 X-68.76298 Y71.98998
G04 P0 ( dwell for no time -- G64 should not smooth over this point )
G00 Z1.00000 ( retract )

G00 X-76.29510 Y85.52332 ( rapid move to begin. )
G01 F100.00000
G01 Z-0.20000
G04 P0 ( dwell for no time -- G64 should not smooth over this point )
G01 F200.00000
G01 X-76.29510 Y85.52332
G01 X-76.38763 Y85.71245
G01 X-76.54679 Y85.94428
G01 X-76.73878 Y86.16632
G01 X-77.04765 Y86.40188
G01 X-77.30736 Y86.53559
G01 X-77.47859 Y86.53013
G01 X-77.69189 Y86.47923
G01 X-77.84468 Y86.41121
G01 X-78.02524 Y86.28675
G01 X-78.20670 Y86.08522
G01 X-78.31158 Y85.89264
G01 X-78.37005 Y85.70829
G01 X-78.39161 Y85.51611
G01 X-78.39161 Y84.66386
G01 X-78.37005 Y84.47169
G01 X-78.31158 Y84.28733
G01 X-78.19857 Y84.09943
G01 X-78.05092 Y83.94001
G01 X-77.88803 Y83.79755
G01 X-78.05092 Y83.94001
G01 X-78.24229 Y84.15640
G01 X-78.83299 Y84.74707
G01 X-78.83299 Y86.29000
G01 X-78.87513 Y86.42888
G01 X-78.94409 Y86.49785
G01 X-79.03421 Y86.53518
G01 X-79.38298 Y86.53998
G01 X-79.38900 Y86.86328
G01 X-79.41277 Y86.95822
G01 X-79.48186 Y87.08748
G01 X-80.90698 Y88.52108
G01 X-80.90698 Y92.88389
G01 X-80.18389 Y93.60698
G01 X-67.47708 Y93.60698
G01 X-65.78150 Y91.91140
G01 X-65.86301 Y91.66766
G01 X-65.89298 Y91.40000
G01 X-65.89298 Y84.40158
G01 X-65.87256 Y84.18200
G01 X-65.80609 Y83.94634
G01 X-65.69494 Y83.72818
G01 X-65.52687 Y83.51771
G01 X-63.73658 Y81.73997
G01 X-63.38321 Y81.63669
G01 X-63.13724 Y81.59984
G01 X-62.93140 Y81.58998
G01 X-61.27458 Y81.58998
G01 X-60.85093 Y81.63108
G01 X-60.46930 Y81.73999
G01 X-59.01911 Y83.17771
G01 X-58.87827 Y83.34741
G01 X-58.75863 Y83.56105
G01 X-58.68297 Y83.79391
G01 X-58.65419 Y84.03709
G01 X-58.65299 Y84.33821
G01 X-58.17855 Y84.58998
G01 X-52.99299 Y84.58998
G01 X-52.98816 Y83.84121
G01 X-52.95085 Y83.75109
G01 X-52.83863 Y83.65901
G01 X-52.74300 Y83.63999
G01 X-51.14298 Y83.63999
G01 X-51.04732 Y83.65901
G01 X-50.96619 Y83.71322
G01 X-50.91201 Y83.79432
G01 X-50.89299 Y83.88998
G01 X-50.89299 Y86.29000
G01 X-50.93513 Y86.42888
G01 X-51.00409 Y86.49785
G01 X-51.09421 Y86.53518
G01 X-52.74300 Y86.53998
G01 X-52.83863 Y86.52096
G01 X-52.95085 Y86.42888
G01 X-52.98816 Y86.33877
G01 X-52.99299 Y85.58997
G01 X-58.17855 Y85.59000
G01 X-58.65299 Y85.84176
G01 X-51.91519 Y92.58998
G01 X-51.72299 Y92.58998
G01 X-51.72299 Y92.11038
G01 X-51.82431 Y91.92397
G01 X-51.88890 Y91.72517
G01 X-51.92298 Y91.44000
G01 X-51.92179 Y89.56388
G01 X-51.89301 Y89.32073
G01 X-51.83609 Y89.13312
G01 X-51.69771 Y88.87422
G01 X-51.55687 Y88.70450
G01 X-49.38796 Y86.53559
G01 X-49.09536 Y86.38652
G01 X-48.79292 Y86.15182
G01 X-48.66333 Y86.01357
G01 X-48.54481 Y85.85672
G01 X-48.35992 Y85.51436
G01 X-48.50420 Y85.78177
G01 X-48.66333 Y86.01357
G01 X-48.79863 Y86.15627
G01 X-49.10612 Y86.39200
G01 X-49.38796 Y86.53559
G01 X-49.53859 Y86.53013
G01 X-49.72746 Y86.48860
G01 X-49.90468 Y86.41121
G01 X-50.08524 Y86.28675
G01 X-50.26670 Y86.08522
G01 X-50.37158 Y85.89264
G01 X-50.43005 Y85.70829
G01 X-50.45299 Y85.49000
G01 X-50.45299 Y84.68998
G01 X-50.43005 Y84.47169
G01 X-50.37158 Y84.28733
G01 X-50.25245 Y84.07281
G01 X-50.10556 Y83.90969
G01 X-49.90300 Y83.76803
G01 X-49.90300 Y83.59709
G01 X-51.76009 Y81.73999
G01 X-60.46930 Y81.73999
G01 X-60.84067 Y81.63400
G01 X-61.17900 Y81.59925
G01 X-62.10297 Y81.59435
G01 X-63.02695 Y81.59925
G01 X-63.36525 Y81.63400
G01 X-63.73658 Y81.73997
G01 X-73.68588 Y81.73999
G01 X-76.33978 Y84.39386
G01 X-76.31184 Y84.49752
G01 X-76.29299 Y84.68998
G01 X-76.29510 Y85.52332
G01 X-76.05298 Y85.28124
G01 X-76.05161 Y85.06386
G01 X-76.02977 Y84.85594
G01 X-75.93305 Y84.55825
G01 X-75.63599 Y84.05249
G01 X-75.50556 Y83.90969
G01 X-75.34994 Y83.79490
G01 X-75.12746 Y83.69137
G01 X-74.88662 Y83.64436
G01 X-74.71936 Y83.64436
G01 X-74.50379 Y83.68459
G01 X-74.25604 Y83.79490
G01 X-74.10041 Y83.90969
G01 X-73.96998 Y84.05249
G01 X-73.67293 Y84.55825
G01 X-73.58029 Y84.83011
G01 X-73.55299 Y85.09000
G01 X-73.56185 Y85.90140
G01 X-73.51298 Y85.85251
G01 X-73.51298 Y85.09000
G01 X-73.47890 Y84.80481
G01 X-73.39305 Y84.55825
G01 X-73.09599 Y84.05249
G01 X-72.96556 Y83.90969
G01 X-72.80994 Y83.79490
G01 X-72.56219 Y83.68459
G01 X-72.34662 Y83.64436
G01 X-72.17936 Y83.64436
G01 X-71.93851 Y83.69137
G01 X-71.76130 Y83.76877
G01 X-71.56041 Y83.90969
G01 X-71.42998 Y84.05249
G01 X-71.13293 Y84.55825
G01 X-71.04029 Y84.83011
G01 X-71.01299 Y85.09000
G01 X-71.02185 Y86.47270
G01 X-70.97298 Y86.42383
G01 X-70.97298 Y85.09000
G01 X-70.93890 Y84.80481
G01 X-70.85305 Y84.55825
G01 X-70.55599 Y84.05249
G01 X-70.42556 Y83.90969
G01 X-70.26994 Y83.79490
G01 X-70.02219 Y83.68459
G01 X-69.80662 Y83.64436
G01 X-69.63936 Y83.64436
G01 X-69.39852 Y83.69137
G01 X-69.22130 Y83.76877
G01 X-69.02041 Y83.90969
G01 X-68.88998 Y84.05249
G01 X-68.59293 Y84.55825
G01 X-68.50029 Y84.83011
G01 X-68.47299 Y85.09000
G01 X-68.47299 Y86.94158
G01 X-68.49341 Y87.16119
G01 X-68.61658 Y87.37961
G04 P0 ( dwell for no time -- G64 should not smooth over this point )
G00 Z1.00000 ( retract )

G00 X-71.58774 Y90.36362 ( rapid move to begin. )
G01 F100.00000
G01 Z-0.20000
G04 P0 ( dwell for no time -- G64 should not smooth over this point )
G01 F200.00000
G01 X-71.58774 Y90.36362
G01 X-71.33272 Y90.16553
G01 X-68.91589 Y87.74867
G01 X-68.75539 Y87.56990
G01 X-68.61658 Y87.37961
G01 X-68.49623 Y87.17547
G01 X-68.43298 Y87.11222
G01 X-68.43298 Y85.09000
G01 X-68.40977 Y84.85594
G01 X-68.32491 Y84.58157
G01 X-68.01599 Y84.05249
G01 X-67.88556 Y83.90969
G01 X-67.72994 Y83.79490
G01 X-67.48219 Y83.68459
G01 X-67.26662 Y83.64436
G01 X-67.09936 Y83.64436
G01 X-66.85851 Y83.69137
G01 X-66.68130 Y83.76877
G01 X-66.48041 Y83.90969
G01 X-66.34998 Y84.05249
G01 X-66.05293 Y84.55825
G01 X-65.96029 Y84.83011
G01 X-65.93299 Y85.09000
G01 X-65.93418 Y87.65449
G01 X-65.96296 Y87.89764
G01 X-66.01988 Y88.08524
G01 X-66.15826 Y88.34415
G01 X-66.29911 Y88.51387
G01 X-70.02272 Y92.23746
G01 X-70.12927 Y92.43522
G01 X-70.31073 Y92.63675
G01 X-70.49130 Y92.76121
G01 X-70.64408 Y92.82923
G01 X-70.90936 Y92.88562
G01 X-71.12859 Y92.88013
G01 X-71.31746 Y92.83860
G01 X-71.49468 Y92.76121
G01 X-71.67524 Y92.63675
G01 X-71.85670 Y92.43522
G01 X-71.96869 Y92.22075
G01 X-72.10674 Y92.00749
G01 X-72.19231 Y91.78839
G01 X-72.24128 Y91.50540
G01 X-72.21835 Y91.20469
G01 X-72.09521 Y90.99570
G01 X-71.72460 Y90.50795
G01 X-71.58774 Y90.36362
G01 X-71.73260 Y90.51638
G01 X-72.09521 Y90.99570
G04 P0 ( dwell for no time -- G64 should not smooth over this point )
G00 Z1.00000 ( retract )

G00 X-72.21835 Y91.20469 ( rapid move to begin. )
G01 F100.00000
G01 Z-0.20000
G04 P0 ( dwell for no time -- G64 should not smooth over this point )
G01 F200.00000
G01 X-72.21835 Y91.20469
G01 X-72.28299 Y91.26934
G01 X-72.30621 Y91.67404
G01 X-72.39107 Y91.94841
G01 X-72.55500 Y92.21373
G01 X-72.66927 Y92.43522
G01 X-72.81189 Y92.60180
G01 X-73.03130 Y92.76121
G01 X-73.20851 Y92.83860
G01 X-73.44936 Y92.88562
G01 X-73.66859 Y92.88013
G01 X-73.85746 Y92.83860
G01 X-74.03468 Y92.76121
G01 X-74.21524 Y92.63675
G01 X-74.39670 Y92.43522
G01 X-74.51098 Y92.21373
G01 X-74.66305 Y91.97172
G01 X-74.74890 Y91.72517
G01 X-74.78298 Y91.44000
G01 X-74.77409 Y90.64917
G01 X-74.58131 Y90.30238
G01 X-74.31245 Y89.97574
G01 X-71.47466 Y87.13645
G01 X-71.20712 Y86.80709
G01 X-71.02185 Y86.47270
G01 X-71.21464 Y86.81946
G01 X-71.47839 Y87.14100
G01 X-74.31080 Y89.97373
G01 X-74.58131 Y90.30238
G04 P0 ( dwell for no time -- G64 should not smooth over this point )
G00 Z1.00000 ( retract )

G00 X-74.77409 Y90.64917 ( rapid move to begin. )
G01 F100.00000
G01 Z-0.20000
G04 P0 ( dwell for no time -- G64 should not smooth over this point )
G01 F200.00000
G01 X-74.77409 Y90.64917
G01 X-74.82299 Y90.69804
G01 X-74.82299 Y91.44000
G01 X-74.85708 Y91.72517
G01 X-74.94293 Y91.97172
G01 X-75.23998 Y92.47749
G01 X-75.37041 Y92.62029
G01 X-75.57130 Y92.76121
G01 X-75.74851 Y92.83860
G01 X-75.98936 Y92.88562
G01 X-76.20859 Y92.88013
G01 X-76.39746 Y92.83860
G01 X-76.57468 Y92.76121
G01 X-76.75524 Y92.63675
G01 X-76.90599 Y92.47749
G01 X-77.20305 Y91.97172
G01 X-77.29568 Y91.69987
G01 X-77.32298 Y91.44000
G01 X-77.31409 Y90.07785
G01 X-77.12131 Y89.73109
G01 X-76.85756 Y89.40955
G01 X-74.02515 Y86.57681
G01 X-73.75464 Y86.24816
G01 X-73.56185 Y85.90140
G01 X-73.74969 Y86.23927
G01 X-74.02515 Y86.57681
G04 P0 ( dwell for no time -- G64 should not smooth over this point )
G00 Z1.00000 ( retract )

G00 X-77.31409 Y90.07785 ( rapid move to begin. )
G01 F100.00000
G01 Z-0.20000
G04 P0 ( dwell for no time -- G64 should not smooth over this point )
G01 F200.00000
G01 X-77.31409 Y90.07785
G01 X-77.36299 Y90.12674
G01 X-77.36436 Y91.46611
G01 X-77.39708 Y91.72517
G01 X-77.47107 Y91.94841
G01 X-77.56299 Y92.11038
G01 X-77.56299 Y92.63997
G01 X-77.60513 Y92.77888
G01 X-77.71732 Y92.87096
G01 X-77.81298 Y92.88998
G01 X-79.41300 Y92.88998
G01 X-79.55189 Y92.84785
G01 X-79.62085 Y92.77888
G01 X-79.65818 Y92.68877
G01 X-79.66299 Y92.11038
G01 X-79.76431 Y91.92397
G01 X-79.82890 Y91.72517
G01 X-79.86298 Y91.44000
G01 X-79.86179 Y89.58448
G01 X-79.83301 Y89.34132
G01 X-79.77609 Y89.15372
G01 X-79.63771 Y88.89482
G01 X-79.49687 Y88.72510
G01 X-77.30736 Y86.53559
G01 X-77.03231 Y86.39340
G01 X-76.72748 Y86.15670
G01 X-76.49421 Y85.88345
G01 X-76.38763 Y85.71245
G04 P0 ( dwell for no time -- G64 should not smooth over this point )
G00 Z1.00000 ( retract )

G00 X-68.77596 Y71.77021 ( rapid move to begin. )
G01 F100.00000
G01 Z-0.20000
G04 P0 ( dwell for no time -- G64 should not smooth over this point )
G01 F200.00000
G01 X-68.77596 Y71.77021
G01 X-68.84243 Y71.44499
G01 X-68.91546 Y71.30890
G01 X-68.94756 Y71.18474
G01 X-68.70769 Y70.88007
G01 X-68.31848 Y70.49087
G01 X-68.70769 Y70.88007
G04 P0 ( dwell for no time -- G64 should not smooth over this point )
G00 Z1.00000 ( retract )

G00 X-68.94756 Y71.18474 ( rapid move to begin. )
G01 F100.00000
G01 Z-0.20000
G04 P0 ( dwell for no time -- G64 should not smooth over this point )
G01 F200.00000
G01 X-68.94756 Y71.18474
G01 X-69.04512 Y71.18998
G01 X-69.24705 Y71.12663
G01 X-69.44538 Y71.08614
G01 X-69.80659 Y71.06717
G04 P0 ( dwell for no time -- G64 should not smooth over this point )
G00 Z1.00000 ( retract )

G00 X-70.03164 Y71.09109 ( rapid move to begin. )
G01 F100.00000
G01 Z-0.20000
G04 P0 ( dwell for no time -- G64 should not smooth over this point )
G01 F200.00000
G01 X-70.03164 Y71.09109
G01 X-70.40524 Y71.19323
G01 X-70.55599 Y71.35249
G01 X-70.67032 Y71.53961
G01 X-70.75005 Y71.77169
G01 X-70.77161 Y71.96386
G01 X-70.77299 Y72.79000
G01 X-70.75414 Y72.98245
G01 X-70.69158 Y73.19264
G01 X-70.55599 Y73.42749
G01 X-70.42556 Y73.57029
G01 X-70.22468 Y73.71121
G01 X-70.04746 Y73.78860
G01 X-69.85859 Y73.83013
G01 X-69.63936 Y73.83562
G01 X-69.42379 Y73.79538
G01 X-69.18495 Y73.68563
G01 X-68.92066 Y73.43805
G01 X-68.86087 Y73.36180
G01 X-68.83077 Y73.27516
G01 X-68.77187 Y72.94395
G01 X-68.84243 Y73.33496
G01 X-68.89986 Y73.41857
G01 X-69.19773 Y73.69759
G01 X-79.14010 Y83.63999
G01 X-80.68300 Y83.63999
G01 X-80.77865 Y83.65901
G01 X-80.89085 Y83.75109
G01 X-80.93299 Y83.88998
G01 X-80.92818 Y86.33877
G01 X-80.89085 Y86.42888
G01 X-80.77865 Y86.52096
G01 X-80.68297 Y86.53998
G01 X-80.38300 Y86.53998
G01 X-80.38300 Y86.58288
G01 X-81.76054 Y87.96043
G01 X-81.85843 Y88.10046
G01 X-81.89143 Y88.19264
G01 X-81.90700 Y88.31400
G01 X-81.90700 Y89.60409
G01 X-85.08964 Y86.42144
G01 X-85.22967 Y86.32353
G01 X-85.41868 Y86.27618
G01 X-147.13999 Y86.27499
G01 X-147.13999 Y84.92498
G01 X-147.15901 Y84.82932
G01 X-147.21322 Y84.74822
G01 X-147.29432 Y84.69401
G01 X-147.38998 Y84.67499
G01 X-149.03999 Y84.67499
G01 X-149.04118 Y84.37898
G01 X-149.07290 Y84.22764
G01 X-148.18998 Y84.23499
G01 X-147.97169 Y84.21205
G01 X-147.76293 Y84.14421
G01 X-147.59475 Y84.04870
G01 X-147.39323 Y83.86724
G01 X-147.26877 Y83.68668
G01 X-147.18459 Y83.48419
G01 X-147.14573 Y83.29475
G01 X-147.14436 Y83.10136
G01 X-147.18459 Y82.88579
G01 X-147.26877 Y82.68330
G01 X-147.40969 Y82.48241
G01 X-147.55249 Y82.35198
G01 X-147.76293 Y82.22577
G01 X-147.97169 Y82.15793
G01 X-148.18998 Y82.13499
G01 X-148.57618 Y82.13499
G01 X-149.00199 Y81.69435
G01 X-148.18998 Y81.69499
G01 X-147.97169 Y81.67205
G01 X-147.76293 Y81.60421
G01 X-147.59475 Y81.50870
G01 X-147.40969 Y81.34756
G01 X-147.29490 Y81.19194
G01 X-147.18459 Y80.94419
G01 X-147.14573 Y80.75475
G01 X-147.14573 Y80.53522
G01 X-147.18459 Y80.34579
G01 X-147.26877 Y80.14330
G01 X-147.40969 Y79.94241
G01 X-147.52879 Y79.83329
G01 X-147.45846 Y79.80693
G01 X-147.31843 Y79.70904
G01 X-139.43968 Y71.83029
G01 X-139.30310 Y71.82429
G01 X-139.20815 Y71.80049
G01 X-139.04102 Y71.70031
G01 X-137.43648 Y70.09750
G01 X-83.70987 Y70.09750
G01 X-83.56049 Y70.35256
G01 X-83.40209 Y70.52643
G01 X-83.21264 Y70.66577
G01 X-82.92668 Y70.79308
G01 X-82.69635 Y70.84065
G01 X-82.46115 Y70.84200
G01 X-82.17941 Y70.78632
G01 X-81.96400 Y70.69191
G01 X-81.72928 Y70.52643
G01 X-81.57088 Y70.35256
G01 X-81.41437 Y70.08147
G01 X-81.33890 Y69.83153
G01 X-81.31706 Y69.57136
G01 X-81.34299 Y69.33761
G01 X-81.41437 Y69.11350
G01 X-81.55442 Y68.86275
G01 X-81.71076 Y68.68706
G01 X-81.96400 Y68.50306
G01 X-82.17941 Y68.40868
G01 X-82.46115 Y68.35297
G01 X-82.69635 Y68.35435
G01 X-82.92668 Y68.40190
G01 X-83.21264 Y68.52920
G01 X-83.40209 Y68.66854
G01 X-83.56049 Y68.84241
G01 X-83.70987 Y69.09747
G01 X-137.42716 Y69.09747
G01 X-136.45441 Y68.12473
G04 P0 ( dwell for no time -- G64 should not smooth over this point )
G00 Z1.00000 ( retract )

G00 X-134.68096 Y64.20698 ( rapid move to begin. )
G01 F100.00000
G01 Z-0.20000
G04 P0 ( dwell for no time -- G64 should not smooth over this point )
G01 F200.00000
G01 X-134.68096 Y64.20698
G01 X-133.98216 Y64.91976
G04 P0 ( dwell for no time -- G64 should not smooth over this point )
G00 Z1.00000 ( retract )

G00 X-136.05198 Y67.47690 ( rapid move to begin. )
G01 F100.00000
G01 Z-0.20000
G04 P0 ( dwell for no time -- G64 should not smooth over this point )
G01 F200.00000
G01 X-136.05198 Y67.47690
G01 X-136.02508 Y67.34170
G01 X-136.02848 Y64.21344
G01 X-136.00143 Y64.04953
G01 X-135.92043 Y63.88476
G01 X-135.76590 Y63.93635
G01 X-135.47494 Y64.10264
G01 X-135.39655 Y64.12634
G01 X-135.12795 Y64.17150
G01 X-134.79666 Y64.12034
G04 P0 ( dwell for no time -- G64 should not smooth over this point )
G00 Z1.00000 ( retract )

G00 X-133.31924 Y61.71448 ( rapid move to begin. )
G01 F100.00000
G01 Z-0.20000
G04 P0 ( dwell for no time -- G64 should not smooth over this point )
G01 F200.00000
G01 X-133.31924 Y61.71448
G01 X-134.39671 Y61.71448
G01 X-134.27852 Y61.84781
G01 X-134.18066 Y62.01461
G01 X-134.09684 Y62.27252
G01 X-134.07799 Y62.46498
G01 X-134.07799 Y63.26500
G01 X-134.09684 Y63.45745
G01 X-134.12478 Y63.56111
G01 X-133.25226 Y64.43530
G01 X-133.17083 Y64.55717
G01 X-133.13786 Y64.64935
G01 X-133.20723 Y64.93043
G01 X-133.13476 Y64.66487
G01 X-132.98787 Y64.50988
G01 X-132.79679 Y64.37274
G01 X-132.67179 Y64.31059
G01 X-132.93689 Y64.25423
G01 X-133.11299 Y64.17432
G01 X-133.29056 Y64.04529
G01 X-133.45170 Y63.86022
G01 X-133.55658 Y63.66764
G01 X-133.60827 Y63.50856
G01 X-133.63799 Y63.26500
G01 X-133.63799 Y62.46498
G01 X-133.61914 Y62.27252
G01 X-133.53532 Y62.01461
G01 X-133.43745 Y61.84781
G01 X-133.31924 Y61.71448
G01 X-133.05338 Y61.62528
G01 X-132.69313 Y61.56805
G01 X-132.48282 Y61.56805
G01 X-132.23062 Y61.60232
G01 X-131.97771 Y61.80295
G01 X-131.84810 Y61.94123
G01 X-131.69709 Y62.15111
G01 X-131.66822 Y62.46498
G01 X-131.66822 Y63.26500
G01 X-131.68018 Y63.47201
G01 X-131.73512 Y63.78298
G01 X-131.72130 Y63.93683
G01 X-131.67175 Y64.11443
G01 X-131.67177 Y64.31559
G01 X-131.54678 Y64.37274
G01 X-131.35572 Y64.50988
G01 X-131.15861 Y64.72385
G01 X-131.10502 Y64.68351
G01 X-130.92224 Y64.72563
G01 X-131.10502 Y64.68351
G01 X-131.67175 Y64.11443
G04 P0 ( dwell for no time -- G64 should not smooth over this point )
G00 Z1.00000 ( retract )

G00 X-133.26077 Y65.23568 ( rapid move to begin. )
G01 F100.00000
G01 Z-0.20000
G04 P0 ( dwell for no time -- G64 should not smooth over this point )
G01 F200.00000
G01 X-133.26077 Y65.23568
G01 X-133.20723 Y64.93043
G01 X-133.26077 Y65.23568
G01 X-133.27174 Y65.46578
G01 X-133.26077 Y65.67485
G01 X-133.22755 Y65.89258
G01 X-133.07454 Y66.09718
G01 X-132.91012 Y66.27058
G01 X-133.06588 Y66.10637
G01 X-133.22755 Y65.89258
G04 P0 ( dwell for no time -- G64 should not smooth over this point )
G00 Z1.00000 ( retract )

G00 X-132.60845 Y66.50957 ( rapid move to begin. )
G01 F100.00000
G01 Z-0.20000
G04 P0 ( dwell for no time -- G64 should not smooth over this point )
G01 F200.00000
G01 X-132.60845 Y66.50957
G01 X-132.91012 Y66.27058
G01 X-132.60845 Y66.50957
G01 X-132.27632 Y66.55280
G01 X-132.04558 Y66.55166
G04 P0 ( dwell for no time -- G64 should not smooth over this point )
G00 Z1.00000 ( retract )

G00 X-131.73509 Y66.50954 ( rapid move to begin. )
G01 F100.00000
G01 Z-0.20000
