( pcb2gcode 2.0.0 )
( Software-independent Gcode )

( This file uses 2 drill bit sizes. )
( Bit sizes: [0.8 mm] [1 mm] )

G94       (Millimeters per minute feed rate.)
G21       (Units == Millimeters.)
G91.1     (Incremental arc distance mode.)
G90       (Absolute coordinates.)
G00 S20000     (RPM spindle speed.)

G00 Z30.00000 (Retract)
T1
M5      (Spindle stop.)
G04 P1.00000
(MSG, Change tool bit to drill size 0.8 mm)
M6      (Tool change.)
M0      (Temporary machine stop.)
M3      (Spindle on clockwise.)
G0 Z1.00000
G04 P1.00000

F200.00000
G0 X-26.41600 Y22.86000
G1 Z-2.10000
G1 Z1.00000
G0 X-30.22600 Y22.86000
G1 Z-2.10000
G1 Z1.00000
G0 X-34.92500 Y29.21000
G1 Z-2.10000
G1 Z1.00000
G0 X-39.37000 Y22.86000
G1 Z-2.10000
G1 Z1.00000
G0 X-43.18000 Y22.86000
G1 Z-2.10000
G1 Z1.00000
G0 X-52.57800 Y18.41500
G1 Z-2.10000
G1 Z1.00000
G0 X-55.11800 Y18.41500
G1 Z-2.10000
G1 Z1.00000
G0 X-57.65800 Y18.41500
G1 Z-2.10000
G1 Z1.00000
G0 X-60.19800 Y18.41500
G1 Z-2.10000
G1 Z1.00000
G0 X-62.73800 Y18.41500
G1 Z-2.10000
G1 Z1.00000
G0 X-65.27800 Y18.41500
G1 Z-2.10000
G1 Z1.00000
G0 X-67.81800 Y18.41500
G1 Z-2.10000
G1 Z1.00000
G0 X-70.35800 Y18.41500
G1 Z-2.10000
G1 Z1.00000
G0 X-72.89800 Y18.41500
G1 Z-2.10000
G1 Z1.00000
G0 X-78.99400 Y14.60500
G1 Z-2.10000
G1 Z1.00000
G0 X-70.35800 Y10.03300
G1 Z-2.10000
G1 Z1.00000
G0 X-75.35800 Y10.03300
G1 Z-2.10000
G1 Z1.00000
G0 X-78.61300 Y10.03300
G1 Z-2.10000
G1 Z1.00000
G0 X-83.61300 Y10.03300
G1 Z-2.10000
G1 Z1.00000
G0 X-86.86800 Y10.03300
G1 Z-2.10000
G1 Z1.00000
G0 X-84.07400 Y14.60500
G1 Z-2.10000
G1 Z1.00000
G0 X-89.15400 Y14.60500
G1 Z-2.10000
G1 Z1.00000
G0 X-91.86800 Y10.03300
G1 Z-2.10000
G1 Z1.00000
G0 X-97.02800 Y11.43000
G1 Z-2.10000
G1 Z1.00000
G0 X-99.02800 Y11.43000
G1 Z-2.10000
G1 Z1.00000
G0 X-104.64800 Y11.43000
G1 Z-2.10000
G1 Z1.00000
G0 X-106.64800 Y11.43000
G1 Z-2.10000
G1 Z1.00000
G0 X-104.64800 Y17.78000
G1 Z-2.10000
G1 Z1.00000
G0 X-109.64800 Y17.78000
G1 Z-2.10000
G1 Z1.00000
G0 X-113.79200 Y24.38400
G1 Z-2.10000
G1 Z1.00000
G0 X-113.79200 Y29.97200
G1 Z-2.10000
G1 Z1.00000
G0 X-119.88800 Y37.46500
G1 Z-2.10000
G1 Z1.00000
G0 X-122.42800 Y37.46500
G1 Z-2.10000
G1 Z1.00000
G0 X-124.96800 Y37.46500
G1 Z-2.10000
G1 Z1.00000
G0 X-127.50800 Y37.46500
G1 Z-2.10000
G1 Z1.00000
G0 X-130.04800 Y37.46500
G1 Z-2.10000
G1 Z1.00000
G0 X-132.58800 Y37.46500
G1 Z-2.10000
G1 Z1.00000
G0 X-135.12800 Y37.46500
G1 Z-2.10000
G1 Z1.00000
G0 X-137.66800 Y37.46500
G1 Z-2.10000
G1 Z1.00000
G0 X-140.20800 Y37.46500
G1 Z-2.10000
G1 Z1.00000
G0 X-142.74800 Y37.46500
G1 Z-2.10000
G1 Z1.00000
G0 X-145.28800 Y37.46500
G1 Z-2.10000
G1 Z1.00000
G0 X-147.82800 Y37.46500
G1 Z-2.10000
G1 Z1.00000
G0 X-150.36800 Y37.46500
G1 Z-2.10000
G1 Z1.00000
G0 X-152.90800 Y37.46500
G1 Z-2.10000
G1 Z1.00000
G0 X-155.44800 Y37.46500
G1 Z-2.10000
G1 Z1.00000
G0 X-147.82800 Y62.86500
G1 Z-2.10000
G1 Z1.00000
G0 X-150.36800 Y62.86500
G1 Z-2.10000
G1 Z1.00000
G0 X-152.90800 Y62.86500
G1 Z-2.10000
G1 Z1.00000
G0 X-155.44800 Y62.86500
G1 Z-2.10000
G1 Z1.00000
G0 X-152.90200 Y71.11600
G1 Z-2.10000
G1 Z1.00000
G0 X-153.10300 Y74.23900
G1 Z-2.10000
G1 Z1.00000
G0 X-140.26700 Y69.17900
G1 Z-2.10000
G1 Z1.00000
G0 X-145.28800 Y62.86500
G1 Z-2.10000
G1 Z1.00000
G0 X-142.74800 Y62.86500
G1 Z-2.10000
G1 Z1.00000
G0 X-140.20800 Y62.86500
G1 Z-2.10000
G1 Z1.00000
G0 X-137.66800 Y62.86500
G1 Z-2.10000
G1 Z1.00000
G0 X-135.12800 Y62.86500
G1 Z-2.10000
G1 Z1.00000
G0 X-132.58800 Y62.86500
G1 Z-2.10000
G1 Z1.00000
G0 X-132.17200 Y65.45500
G1 Z-2.10000
G1 Z1.00000
G0 X-130.04800 Y62.86500
G1 Z-2.10000
G1 Z1.00000
G0 X-127.50800 Y62.86500
G1 Z-2.10000
G1 Z1.00000
G0 X-124.96800 Y62.86500
G1 Z-2.10000
G1 Z1.00000
G0 X-122.42800 Y62.86500
G1 Z-2.10000
G1 Z1.00000
G0 X-119.88800 Y62.86500
G1 Z-2.10000
G1 Z1.00000
G0 X-117.34800 Y62.86500
G1 Z-2.10000
G1 Z1.00000
G0 X-114.80800 Y62.86500
G1 Z-2.10000
G1 Z1.00000
G0 X-112.26800 Y62.86500
G1 Z-2.10000
G1 Z1.00000
G0 X-109.72800 Y62.86500
G1 Z-2.10000
G1 Z1.00000
G0 X-98.98000 Y53.84800
G1 Z-2.10000
G1 Z1.00000
G0 X-96.01200 Y47.24400
G1 Z-2.10000
G1 Z1.00000
G0 X-98.51200 Y47.24400
G1 Z-2.10000
G1 Z1.00000
G0 X-96.05200 Y37.08400
G1 Z-2.10000
G1 Z1.00000
G0 X-98.55200 Y37.08400
G1 Z-2.10000
G1 Z1.00000
G0 X-94.06000 Y29.97200
G1 Z-2.10000
G1 Z1.00000
G0 X-99.06000 Y29.97200
G1 Z-2.10000
G1 Z1.00000
G0 X-109.72800 Y37.46500
G1 Z-2.10000
G1 Z1.00000
G0 X-112.26800 Y37.46500
G1 Z-2.10000
G1 Z1.00000
G0 X-114.80800 Y37.46500
G1 Z-2.10000
G1 Z1.00000
G0 X-117.34800 Y37.46500
G1 Z-2.10000
G1 Z1.00000
G0 X-103.63200 Y29.97200
G1 Z-2.10000
G1 Z1.00000
G0 X-103.63200 Y24.38400
G1 Z-2.10000
G1 Z1.00000
G0 X-99.56800 Y17.78000
G1 Z-2.10000
G1 Z1.00000
G0 X-94.56800 Y17.78000
G1 Z-2.10000
G1 Z1.00000
G0 X-89.15400 Y24.76500
G1 Z-2.10000
G1 Z1.00000
G0 X-82.24500 Y32.42800
G1 Z-2.10000
G1 Z1.00000
G0 X-84.07400 Y24.76500
G1 Z-2.10000
G1 Z1.00000
G0 X-78.99400 Y24.76500
G1 Z-2.10000
G1 Z1.00000
G0 X-72.89800 Y26.03500
G1 Z-2.10000
G1 Z1.00000
G0 X-70.35800 Y26.03500
G1 Z-2.10000
G1 Z1.00000
G0 X-67.81800 Y26.03500
G1 Z-2.10000
G1 Z1.00000
G0 X-65.27800 Y26.03500
G1 Z-2.10000
G1 Z1.00000
G0 X-62.73800 Y26.03500
G1 Z-2.10000
G1 Z1.00000
G0 X-60.19800 Y26.03500
G1 Z-2.10000
G1 Z1.00000
G0 X-57.65800 Y26.03500
G1 Z-2.10000
G1 Z1.00000
G0 X-55.11800 Y26.03500
G1 Z-2.10000
G1 Z1.00000
G0 X-52.57800 Y26.03500
G1 Z-2.10000
G1 Z1.00000
G0 X-50.52100 Y32.13300
G1 Z-2.10000
G1 Z1.00000
G0 X-43.18000 Y33.02000
G1 Z-2.10000
G1 Z1.00000
G0 X-39.37000 Y33.02000
G1 Z-2.10000
G1 Z1.00000
G0 X-40.64000 Y36.83000
G1 Z-2.10000
G1 Z1.00000
G0 X-40.64000 Y39.37000
G1 Z-2.10000
G1 Z1.00000
G0 X-44.13400 Y47.24100
G1 Z-2.10000
G1 Z1.00000
G0 X-43.05300 Y57.23000
G1 Z-2.10000
G1 Z1.00000
G0 X-45.84700 Y58.67400
G1 Z-2.10000
G1 Z1.00000
G0 X-50.03800 Y59.69000
G1 Z-2.10000
G1 Z1.00000
G0 X-52.57800 Y59.69000
G1 Z-2.10000
G1 Z1.00000
G0 X-55.11800 Y59.69000
G1 Z-2.10000
G1 Z1.00000
G0 X-57.65800 Y59.69000
G1 Z-2.10000
G1 Z1.00000
G0 X-60.19800 Y59.69000
G1 Z-2.10000
G1 Z1.00000
G0 X-62.73800 Y59.69000
G1 Z-2.10000
G1 Z1.00000
G0 X-65.27800 Y59.69000
G1 Z-2.10000
G1 Z1.00000
G0 X-67.81800 Y59.69000
G1 Z-2.10000
G1 Z1.00000
G0 X-71.62800 Y59.69000
G1 Z-2.10000
G1 Z1.00000
G0 X-68.99200 Y54.64900
G1 Z-2.10000
G1 Z1.00000
G0 X-72.13600 Y54.35600
G1 Z-2.10000
G1 Z1.00000
G0 X-93.98000 Y53.84800
G1 Z-2.10000
G1 Z1.00000
G0 X-82.29600 Y54.35600
G1 Z-2.10000
G1 Z1.00000
G0 X-79.37500 Y57.02300
G1 Z-2.10000
G1 Z1.00000
G0 X-71.62800 Y64.69000
G1 Z-2.10000
G1 Z1.00000
G0 X-67.81800 Y67.31000
G1 Z-2.10000
G1 Z1.00000
G0 X-65.27800 Y67.31000
G1 Z-2.10000
G1 Z1.00000
G0 X-62.73800 Y67.31000
G1 Z-2.10000
G1 Z1.00000
G0 X-60.19800 Y67.31000
G1 Z-2.10000
G1 Z1.00000
G0 X-62.10300 Y72.39000
G1 Z-2.10000
G1 Z1.00000
G0 X-64.64300 Y72.39000
G1 Z-2.10000
G1 Z1.00000
G0 X-67.18300 Y72.39000
G1 Z-2.10000
G1 Z1.00000
G0 X-69.72300 Y72.39000
G1 Z-2.10000
G1 Z1.00000
G0 X-72.26300 Y72.39000
G1 Z-2.10000
G1 Z1.00000
G0 X-74.80300 Y72.39000
G1 Z-2.10000
G1 Z1.00000
G0 X-77.34300 Y72.39000
G1 Z-2.10000
G1 Z1.00000
G0 X-82.56600 Y69.59700
G1 Z-2.10000
G1 Z1.00000
G0 X-79.88300 Y72.39000
G1 Z-2.10000
G1 Z1.00000
G0 X-79.88300 Y85.09000
G1 Z-2.10000
G1 Z1.00000
G0 X-77.34300 Y85.09000
G1 Z-2.10000
G1 Z1.00000
G0 X-74.80300 Y85.09000
G1 Z-2.10000
G1 Z1.00000
G0 X-72.26300 Y85.09000
G1 Z-2.10000
G1 Z1.00000
G0 X-69.72300 Y85.09000
G1 Z-2.10000
G1 Z1.00000
G0 X-67.18300 Y85.09000
G1 Z-2.10000
G1 Z1.00000
G0 X-64.64300 Y85.09000
G1 Z-2.10000
G1 Z1.00000
G0 X-62.10300 Y85.09000
G1 Z-2.10000
G1 Z1.00000
G0 X-64.60300 Y91.44000
G1 Z-2.10000
G1 Z1.00000
G0 X-62.10300 Y91.44000
G1 Z-2.10000
G1 Z1.00000
G0 X-51.94300 Y85.09000
G1 Z-2.10000
G1 Z1.00000
G0 X-49.40300 Y85.09000
G1 Z-2.10000
G1 Z1.00000
G0 X-46.86300 Y85.09000
G1 Z-2.10000
G1 Z1.00000
G0 X-44.32300 Y85.09000
G1 Z-2.10000
G1 Z1.00000
G0 X-41.78300 Y85.09000
G1 Z-2.10000
G1 Z1.00000
G0 X-39.24300 Y85.09000
G1 Z-2.10000
G1 Z1.00000
G0 X-36.70300 Y85.09000
G1 Z-2.10000
G1 Z1.00000
G0 X-34.16300 Y85.09000
G1 Z-2.10000
G1 Z1.00000
G0 X-36.66300 Y91.44000
G1 Z-2.10000
G1 Z1.00000
G0 X-34.16300 Y91.44000
G1 Z-2.10000
G1 Z1.00000
G0 X-24.00300 Y85.09000
G1 Z-2.10000
G1 Z1.00000
G0 X-21.46300 Y85.09000
G1 Z-2.10000
G1 Z1.00000
G0 X-18.92300 Y85.09000
G1 Z-2.10000
G1 Z1.00000
G0 X-16.38300 Y85.09000
G1 Z-2.10000
G1 Z1.00000
G0 X-8.72300 Y91.44000
G1 Z-2.10000
G1 Z1.00000
G0 X-6.22300 Y91.44000
G1 Z-2.10000
G1 Z1.00000
G0 X-6.22300 Y85.09000
G1 Z-2.10000
G1 Z1.00000
G0 X-8.76300 Y85.09000
G1 Z-2.10000
G1 Z1.00000
G0 X-11.30300 Y85.09000
G1 Z-2.10000
G1 Z1.00000
G0 X-13.84300 Y85.09000
G1 Z-2.10000
G1 Z1.00000
G0 X-34.16300 Y72.39000
G1 Z-2.10000
G1 Z1.00000
G0 X-36.70300 Y72.39000
G1 Z-2.10000
G1 Z1.00000
G0 X-39.24300 Y72.39000
G1 Z-2.10000
G1 Z1.00000
G0 X-41.78300 Y72.39000
G1 Z-2.10000
G1 Z1.00000
G0 X-44.32300 Y72.39000
G1 Z-2.10000
G1 Z1.00000
G0 X-46.86300 Y72.39000
G1 Z-2.10000
G1 Z1.00000
G0 X-49.40300 Y72.39000
G1 Z-2.10000
G1 Z1.00000
G0 X-51.94300 Y72.39000
G1 Z-2.10000
G1 Z1.00000
G0 X-57.65800 Y67.31000
G1 Z-2.10000
G1 Z1.00000
G0 X-55.11800 Y67.31000
G1 Z-2.10000
G1 Z1.00000
G0 X-52.57800 Y67.31000
G1 Z-2.10000
G1 Z1.00000
G0 X-50.03800 Y67.31000
G1 Z-2.10000
G1 Z1.00000
G0 X-47.31700 Y63.68000
G1 Z-2.10000
G1 Z1.00000
G0 X-43.05300 Y62.23000
G1 Z-2.10000
G1 Z1.00000
G0 X-38.60800 Y62.23000
G1 Z-2.10000
G1 Z1.00000
G0 X-38.60800 Y59.69000
G1 Z-2.10000
G1 Z1.00000
G0 X-38.60800 Y57.15000
G1 Z-2.10000
G1 Z1.00000
G0 X-38.60800 Y54.61000
G1 Z-2.10000
G1 Z1.00000
G0 X-38.60800 Y52.07000
G1 Z-2.10000
G1 Z1.00000
G0 X-38.60800 Y49.53000
G1 Z-2.10000
G1 Z1.00000
G0 X-38.60800 Y46.99000
G1 Z-2.10000
G1 Z1.00000
G0 X-38.60800 Y44.45000
G1 Z-2.10000
G1 Z1.00000
G0 X-34.92500 Y39.37000
G1 Z-2.10000
G1 Z1.00000
G0 X-30.98800 Y44.45000
G1 Z-2.10000
G1 Z1.00000
G0 X-30.98800 Y46.99000
G1 Z-2.10000
G1 Z1.00000
G0 X-30.98800 Y49.53000
G1 Z-2.10000
G1 Z1.00000
G0 X-30.98800 Y52.07000
G1 Z-2.10000
G1 Z1.00000
G0 X-30.98800 Y54.61000
G1 Z-2.10000
G1 Z1.00000
G0 X-30.98800 Y57.15000
G1 Z-2.10000
G1 Z1.00000
G0 X-30.98800 Y59.69000
G1 Z-2.10000
G1 Z1.00000
G0 X-30.98800 Y62.23000
G1 Z-2.10000
G1 Z1.00000
G0 X-24.00300 Y72.39000
G1 Z-2.10000
G1 Z1.00000
G0 X-21.46300 Y72.39000
G1 Z-2.10000
G1 Z1.00000
G0 X-18.92300 Y72.39000
G1 Z-2.10000
G1 Z1.00000
G0 X-16.38300 Y72.39000
G1 Z-2.10000
G1 Z1.00000
G0 X-13.84300 Y72.39000
G1 Z-2.10000
G1 Z1.00000
G0 X-11.30300 Y72.39000
G1 Z-2.10000
G1 Z1.00000
G0 X-8.76300 Y72.39000
G1 Z-2.10000
G1 Z1.00000
G0 X-6.22300 Y72.39000
G1 Z-2.10000
G1 Z1.00000
G0 X-8.72300 Y62.86500
G1 Z-2.10000
G1 Z1.00000
G0 X-6.22300 Y62.86500
G1 Z-2.10000
G1 Z1.00000
G0 X-6.22300 Y56.51500
G1 Z-2.10000
G1 Z1.00000
G0 X-8.76300 Y56.51500
G1 Z-2.10000
G1 Z1.00000
G0 X-11.30300 Y56.51500
G1 Z-2.10000
G1 Z1.00000
G0 X-13.84300 Y56.51500
G1 Z-2.10000
G1 Z1.00000
G0 X-16.38300 Y56.51500
G1 Z-2.10000
G1 Z1.00000
G0 X-18.92300 Y56.51500
G1 Z-2.10000
G1 Z1.00000
G0 X-21.46300 Y56.51500
G1 Z-2.10000
G1 Z1.00000
G0 X-24.00300 Y56.51500
G1 Z-2.10000
G1 Z1.00000
G0 X-6.22300 Y43.81500
G1 Z-2.10000
G1 Z1.00000
G0 X-8.76300 Y43.81500
G1 Z-2.10000
G1 Z1.00000
G0 X-11.30300 Y43.81500
G1 Z-2.10000
G1 Z1.00000
G0 X-13.84300 Y43.81500
G1 Z-2.10000
G1 Z1.00000
G0 X-16.38300 Y43.81500
G1 Z-2.10000
G1 Z1.00000
G0 X-18.92300 Y43.81500
G1 Z-2.10000
G1 Z1.00000
G0 X-21.59000 Y40.00500
G1 Z-2.10000
G1 Z1.00000
G0 X-21.46300 Y43.81500
G1 Z-2.10000
G1 Z1.00000
G0 X-24.00300 Y43.81500
G1 Z-2.10000
G1 Z1.00000
G0 X-27.94000 Y39.37000
G1 Z-2.10000
G1 Z1.00000
G0 X-27.94000 Y36.83000
G1 Z-2.10000
G1 Z1.00000
G0 X-30.22600 Y33.02000
G1 Z-2.10000
G1 Z1.00000
G0 X-26.41600 Y33.02000
G1 Z-2.10000
G1 Z1.00000
G0 X-21.59000 Y29.84500
G1 Z-2.10000
G1 Z1.00000

G00 Z30.00000 (Retract)
T3
M5      (Spindle stop.)
G04 P1.00000
(MSG, Change tool bit to drill size 1 mm)
M6      (Tool change.)
M0      (Temporary machine stop.)
M3      (Spindle on clockwise.)
G0 Z1.00000
G04 P1.00000

F200.00000
G0 X-7.36500 Y6.35000
G1 Z-2.10000
G1 Z1.00000
G0 X-12.06500 Y6.35000
G1 Z-2.10000
G1 Z1.00000
G0 X-16.76500 Y6.35000
G1 Z-2.10000
G1 Z1.00000
G0 X-16.76500 Y15.24000
G1 Z-2.10000
G1 Z1.00000
G0 X-12.06500 Y15.24000
G1 Z-2.10000
G1 Z1.00000
G0 X-7.36500 Y15.24000
G1 Z-2.10000
G1 Z1.00000
G0 X-7.62000 Y23.57500
G1 Z-2.10000
G1 Z1.00000
G0 X-7.62000 Y28.57500
G1 Z-2.10000
G1 Z1.00000
G0 X-27.17800 Y8.25500
G1 Z-2.10000
G1 Z1.00000
G0 X-32.17800 Y8.25500
G1 Z-2.10000
G1 Z1.00000
G0 X-37.33800 Y8.25500
G1 Z-2.10000
G1 Z1.00000
G0 X-42.33800 Y8.25500
G1 Z-2.10000
G1 Z1.00000
G0 X-47.49800 Y8.25500
G1 Z-2.10000
G1 Z1.00000
G0 X-52.49800 Y8.25500
G1 Z-2.10000
G1 Z1.00000
G0 X-61.46800 Y5.08000
G1 Z-2.10000
G1 Z1.00000
G0 X-64.00800 Y5.08000
G1 Z-2.10000
G1 Z1.00000
G0 X-61.46800 Y10.16000
G1 Z-2.10000
G1 Z1.00000
G0 X-64.00800 Y10.16000
G1 Z-2.10000
G1 Z1.00000
G0 X-71.62800 Y5.08000
G1 Z-2.10000
G1 Z1.00000
G0 X-74.16800 Y5.08000
G1 Z-2.10000
G1 Z1.00000
G0 X-79.24800 Y5.20700
G1 Z-2.10000
G1 Z1.00000
G0 X-81.78800 Y5.20700
G1 Z-2.10000
G1 Z1.00000
G0 X-86.86800 Y5.20700
G1 Z-2.10000
G1 Z1.00000
G0 X-89.40800 Y5.20700
G1 Z-2.10000
G1 Z1.00000
G0 X-97.02800 Y5.08000
G1 Z-2.10000
G1 Z1.00000
G0 X-99.56800 Y5.08000
G1 Z-2.10000
G1 Z1.00000
G0 X-104.64800 Y5.08000
G1 Z-2.10000
G1 Z1.00000
G0 X-107.18800 Y5.08000
G1 Z-2.10000
G1 Z1.00000
G0 X-121.16700 Y15.74000
G1 Z-2.10000
G1 Z1.00000
G0 X-123.70700 Y15.74000
G1 Z-2.10000
G1 Z1.00000
G0 X-121.16700 Y13.20000
G1 Z-2.10000
G1 Z1.00000
G0 X-123.70700 Y13.20000
G1 Z-2.10000
G1 Z1.00000
G0 X-121.16700 Y10.66000
G1 Z-2.10000
G1 Z1.00000
G0 X-123.70700 Y10.66000
G1 Z-2.10000
G1 Z1.00000
G0 X-136.90600 Y7.62000
G1 Z-2.10000
G1 Z1.00000
G0 X-142.24000 Y16.51000
G1 Z-2.10000
G1 Z1.00000
G0 X-142.24000 Y19.05000
G1 Z-2.10000
G1 Z1.00000
G0 X-142.24000 Y21.59000
G1 Z-2.10000
G1 Z1.00000
G0 X-142.24000 Y24.13000
G1 Z-2.10000
G1 Z1.00000
G0 X-139.70000 Y24.13000
G1 Z-2.10000
G1 Z1.00000
G0 X-139.70000 Y21.59000
G1 Z-2.10000
G1 Z1.00000
G0 X-139.70000 Y19.05000
G1 Z-2.10000
G1 Z1.00000
G0 X-139.70000 Y16.51000
G1 Z-2.10000
G1 Z1.00000
G0 X-123.70700 Y18.28000
G1 Z-2.10000
G1 Z1.00000
G0 X-121.16700 Y18.28000
G1 Z-2.10000
G1 Z1.00000
G0 X-123.70700 Y20.82000
G1 Z-2.10000
G1 Z1.00000
G0 X-121.16700 Y20.82000
G1 Z-2.10000
G1 Z1.00000
G0 X-148.59000 Y73.02500
G1 Z-2.10000
G1 Z1.00000
G0 X-148.59000 Y75.56500
G1 Z-2.10000
G1 Z1.00000
G0 X-148.59000 Y78.10500
G1 Z-2.10000
G1 Z1.00000
G0 X-148.59000 Y80.64500
G1 Z-2.10000
G1 Z1.00000
G0 X-148.59000 Y83.18500
G1 Z-2.10000
G1 Z1.00000
G0 X-148.59000 Y85.72500
G1 Z-2.10000
G1 Z1.00000
G0 X-133.35000 Y94.23400
G1 Z-2.10000
G1 Z1.00000
G0 X-87.31000 Y50.03800
G1 Z-2.10000
G1 Z1.00000
G0 X-87.31000 Y32.25800
G1 Z-2.10000
G1 Z1.00000
G0 X-47.31000 Y50.03800
G1 Z-2.10000
G1 Z1.00000
G0 X-47.31000 Y32.25800
G1 Z-2.10000
G1 Z1.00000
G0 X-44.45000 Y19.05000
G1 Z-2.10000
G1 Z1.00000
G0 X-41.91000 Y19.05000
G1 Z-2.10000
G1 Z1.00000
G0 X-39.37000 Y19.05000
G1 Z-2.10000
G1 Z1.00000
G0 X-31.75000 Y19.05000
G1 Z-2.10000
G1 Z1.00000
G0 X-29.21000 Y19.05000
G1 Z-2.10000
G1 Z1.00000
G0 X-26.67000 Y19.05000
G1 Z-2.10000
G1 Z1.00000
G0 X-10.03300 Y36.95700
G1 Z-2.10000
G1 Z1.00000
G0 X-15.11300 Y62.86500
G1 Z-2.10000
G1 Z1.00000
G0 X-17.65300 Y62.86500
G1 Z-2.10000
G1 Z1.00000
G0 X-20.19300 Y62.86500
G1 Z-2.10000
G1 Z1.00000
G0 X-22.73300 Y62.86500
G1 Z-2.10000
G1 Z1.00000
G0 X-29.08300 Y76.45400
G1 Z-2.10000
G1 Z1.00000
G0 X-15.11300 Y91.44000
G1 Z-2.10000
G1 Z1.00000
G0 X-17.65300 Y91.44000
G1 Z-2.10000
G1 Z1.00000
G0 X-20.19300 Y91.44000
G1 Z-2.10000
G1 Z1.00000
G0 X-22.73300 Y91.44000
G1 Z-2.10000
G1 Z1.00000
G0 X-43.05300 Y91.44000
G1 Z-2.10000
G1 Z1.00000
G0 X-45.59300 Y91.44000
G1 Z-2.10000
G1 Z1.00000
G0 X-48.13300 Y91.44000
G1 Z-2.10000
G1 Z1.00000
G0 X-50.67300 Y91.44000
G1 Z-2.10000
G1 Z1.00000
G0 X-70.99300 Y91.44000
G1 Z-2.10000
G1 Z1.00000
G0 X-73.53300 Y91.44000
G1 Z-2.10000
G1 Z1.00000
G0 X-76.07300 Y91.44000
G1 Z-2.10000
G1 Z1.00000
G0 X-78.61300 Y91.44000
G1 Z-2.10000
G1 Z1.00000

G00 Z30.000 ( All done -- retract )

M5      (Spindle off.)
G04 P1.000000
M9      (Coolant off.)
M2      (Program end.)

