( pcb2gcode 2.0.0 )
( Software-independent Gcode )
( This file uses a mill head of 1.00000mm to drill the 3 hole sizes. )
( Hole sizes: [2 mm] [2.4 mm] [3 mm] )

G94       (Millimeters per minute feed rate.)
G21       (Units == Millimeters.)
G91.1     (Incremental arc distance mode.)
G90       (Absolute coordinates.)
S20000    (RPM spindle speed.)
G01 F200.00000 (Feedrate)
M3        (Spindle on clockwise.)
G04 P1.00000
G00 Z1.00000

G0 X-6.86500 Y6.35000
G1 Z2.10000 F100.00000
F200.00000
G2 X-6.86500 Y6.35001 Z-0.00000 I-0.50000 J0.00000
G2 X-6.86500 Y6.35002 Z-2.10000 I-0.50000 J0.00000
G2 X-6.86500 Y6.35003 I-0.50000 J0.00000
G0 Z1.00000

G0 X-6.86500 Y15.24000
G1 Z2.10000 F100.00000
F200.00000
G2 X-6.86500 Y15.24001 Z-0.00000 I-0.50000 J0.00000
G2 X-6.86500 Y15.24002 Z-2.10000 I-0.50000 J0.00000
G2 X-6.86500 Y15.24003 I-0.50000 J0.00000
G0 Z1.00000

G0 X-16.26500 Y15.24000
G1 Z2.10000 F100.00000
F200.00000
G2 X-16.26500 Y15.24001 Z-0.00000 I-0.50000 J0.00000
G2 X-16.26500 Y15.24002 Z-2.10000 I-0.50000 J0.00000
G2 X-16.26500 Y15.24003 I-0.50000 J0.00000
G0 Z1.00000

G0 X-16.26500 Y6.35000
G1 Z2.10000 F100.00000
F200.00000
G2 X-16.26500 Y6.35001 Z-0.00000 I-0.50000 J0.00000
G2 X-16.26500 Y6.35002 Z-2.10000 I-0.50000 J0.00000
G2 X-16.26500 Y6.35003 I-0.50000 J0.00000
G0 Z1.00000

G0 X-11.36500 Y6.35000
G1 Z2.10000 F100.00000
F200.00000
G2 X-11.36500 Y6.35001 Z-0.00000 I-0.70000 J0.00000
G2 X-11.36500 Y6.35002 Z-2.10000 I-0.70000 J0.00000
G2 X-11.36500 Y6.35003 I-0.70000 J0.00000
G0 Z1.00000

G0 X-11.36500 Y15.24000
G1 Z2.10000 F100.00000
F200.00000
G2 X-11.36500 Y15.24001 Z-0.00000 I-0.70000 J0.00000
G2 X-11.36500 Y15.24002 Z-2.10000 I-0.70000 J0.00000
G2 X-11.36500 Y15.24003 I-0.70000 J0.00000
G0 Z1.00000

G0 X-9.03300 Y36.95700
G1 Z2.10000 F100.00000
F200.00000
G2 X-9.03300 Y36.95701 Z-0.00000 I-1.00000 J0.00000
G2 X-9.03300 Y36.95702 Z-2.10000 I-1.00000 J0.00000
G2 X-9.03300 Y36.95703 I-1.00000 J0.00000
G0 Z1.00000

G0 X-28.08300 Y76.45400
G1 Z2.10000 F100.00000
F200.00000
G2 X-28.08300 Y76.45401 Z-0.00000 I-1.00000 J0.00000
G2 X-28.08300 Y76.45402 Z-2.10000 I-1.00000 J0.00000
G2 X-28.08300 Y76.45403 I-1.00000 J0.00000
G0 Z1.00000

G0 X-132.35000 Y94.23400
G1 Z2.10000 F100.00000
F200.00000
G2 X-132.35000 Y94.23401 Z-0.00000 I-1.00000 J0.00000
G2 X-132.35000 Y94.23402 Z-2.10000 I-1.00000 J0.00000
G2 X-132.35000 Y94.23403 I-1.00000 J0.00000
G0 Z1.00000

G0 X-135.90600 Y7.62000
G1 Z2.10000 F100.00000
F200.00000
G2 X-135.90600 Y7.62001 Z-0.00000 I-1.00000 J0.00000
G2 X-135.90600 Y7.62002 Z-2.10000 I-1.00000 J0.00000
G2 X-135.90600 Y7.62003 I-1.00000 J0.00000
G0 Z1.00000

G00 Z30.000 ( All done -- retract )

M5      (Spindle off.)
G04 P1.000000
M9      (Coolant off.)
M2      (Program end.)

